;FLAVOR:Marlin
;TIME:376
;Filament used: 0.847964m
;Layer height: 0.3
;MINX:124.26
;MINY:124.26
;MINZ:0.3
;MAXX:180.74
;MAXY:180.74
;MAXZ:15.151
;LINEARADVANCEPROCESSED
;Generated with Cura_SteamEngine 4.8.0
M140 S90
M105
M190 S90
M104 S245
M105
M109 S245
M82 ;absolute extrusion mode
; XY Comp -> Scale 101 25
PRINT_START
BED_MESH_PROFILE LOAD=HOT
SET_PRESSURE_ADVANCE ADVANCE=0.04
; SET_GCODE_OFFSET Z=0
M141 S50
M82 ;absolute extrusion mode
; EXTRUDER START
M83 ;relative extrusion mode
M83 ;relative extrusion mode
G1 F3300 E-0.35
;LAYER_COUNT:50
M900 K0.040000 T0 ;added by LinearAdvanceSettingPlugin
;LAYER:0
M107
M204 S1600
G0 F10800 X126.448 Y126.921 Z0.3
M204 S800
;TYPE:SKIRT
G1 F3300 E0.35
G1 F1800 X126.919 Y126.451 E0.05258
G1 X127.66 Y125.844 E0.0757
G1 X128.205 Y125.48 E0.05179
G1 X129.054 Y125.026 E0.07608
G1 X129.637 Y124.784 E0.04988
G1 X130.575 Y124.498 E0.0775
G1 X131.201 Y124.373 E0.05045
G1 X132.182 Y124.276 E0.0779
G1 X132.501 Y124.26 E0.02524
G1 X172.509 Y124.261 E3.16168
G1 X172.828 Y124.277 E0.02524
G1 X173.799 Y124.373 E0.07711
G1 X174.423 Y124.497 E0.05028
G1 X175.36 Y124.782 E0.0774
G1 X175.945 Y125.025 E0.05006
G1 X176.792 Y125.478 E0.07591
G1 X177.339 Y125.842 E0.05192
G1 X178.079 Y126.448 E0.07559
G1 X178.549 Y126.919 E0.05258
G1 X179.156 Y127.66 E0.0757
G1 X179.521 Y128.207 E0.05197
G1 X179.974 Y129.054 E0.07591
G1 X180.216 Y129.636 E0.04981
G1 X180.502 Y130.573 E0.07742
G1 X180.627 Y131.2 E0.05052
G1 X180.724 Y132.18 E0.07782
G1 X180.74 Y132.499 E0.02524
G1 X180.739 Y172.509 E3.16183
G1 X180.723 Y172.828 E0.02524
G1 X180.627 Y173.799 E0.07711
G1 X180.503 Y174.423 E0.05028
G1 X180.218 Y175.36 E0.0774
G1 X179.975 Y175.945 E0.05006
G1 X179.522 Y176.792 E0.07591
G1 X179.158 Y177.338 E0.05186
G1 X178.551 Y178.079 E0.0757
G1 X178.081 Y178.549 E0.05253
G1 X177.34 Y179.156 E0.0757
G1 X176.795 Y179.52 E0.05179
G1 X175.946 Y179.974 E0.07608
G1 X175.363 Y180.216 E0.04988
G1 X174.425 Y180.502 E0.0775
G1 X173.799 Y180.627 E0.05045
G1 X172.818 Y180.724 E0.0779
G1 X172.499 Y180.74 E0.02524
G1 X132.491 Y180.739 E3.16168
G1 X132.172 Y180.723 E0.02524
G1 X131.201 Y180.627 E0.07711
G1 X130.577 Y180.503 E0.05028
G1 X129.64 Y180.218 E0.0774
G1 X129.055 Y179.975 E0.05006
G1 X128.206 Y179.521 E0.07608
G1 X127.661 Y179.157 E0.05179
G1 X126.92 Y178.55 E0.0757
G1 X126.45 Y178.08 E0.05253
G1 X125.843 Y177.339 E0.0757
G1 X125.479 Y176.793 E0.05186
G1 X125.026 Y175.946 E0.07591
G1 X124.784 Y175.363 E0.04988
G1 X124.498 Y174.425 E0.0775
G1 X124.373 Y173.799 E0.05045
G1 X124.276 Y172.82 E0.07775
G1 X124.26 Y172.501 E0.02524
G1 X124.261 Y132.491 E3.16183
G1 X124.277 Y132.173 E0.02516
G1 X124.373 Y131.201 E0.07719
G1 X124.497 Y130.575 E0.05043
G1 X124.782 Y129.639 E0.07732
G1 X125.025 Y129.055 E0.04999
G1 X125.478 Y128.208 E0.07591
G1 X125.842 Y127.661 E0.05192
G1 X126.448 Y126.921 E0.07559
M204 S1600
G0 F10800 X127.005 Y127.377
M204 S800
G1 F1800 X127.375 Y127.008 E0.0413
G1 X128.116 Y126.401 E0.0757
G1 X128.545 Y126.115 E0.04075
G1 X129.394 Y125.661 E0.07608
G1 X129.847 Y125.473 E0.03876
G1 X130.785 Y125.187 E0.0775
G1 X131.272 Y125.089 E0.03926
G1 X132.253 Y124.992 E0.0779
G1 X132.501 Y124.98 E0.01962
G1 X172.509 Y124.981 E3.16168
G1 X172.757 Y124.993 E0.01962
G1 X173.728 Y125.089 E0.07711
G1 X174.213 Y125.186 E0.03909
G1 X175.15 Y125.471 E0.0774
G1 X175.605 Y125.66 E0.03894
G1 X176.452 Y126.113 E0.07591
G1 X176.883 Y126.399 E0.04088
G1 X177.623 Y127.005 E0.07559
G1 X177.992 Y127.375 E0.0413
G1 X178.599 Y128.116 E0.0757
G1 X178.886 Y128.547 E0.04092
G1 X179.339 Y129.394 E0.07591
G1 X179.527 Y129.846 E0.03869
G1 X179.813 Y130.783 E0.07742
G1 X179.911 Y131.271 E0.03933
G1 X180.008 Y132.251 E0.07782
G1 X180.02 Y132.499 E0.01962
G1 X180.019 Y172.509 E3.16183
G1 X180.007 Y172.757 E0.01962
G1 X179.911 Y173.728 E0.07711
G1 X179.814 Y174.213 E0.03909
G1 X179.529 Y175.15 E0.0774
G1 X179.34 Y175.605 E0.03894
G1 X178.887 Y176.452 E0.07591
G1 X178.601 Y176.882 E0.04081
G1 X177.994 Y177.623 E0.0757
G1 X177.625 Y177.992 E0.04124
G1 X176.884 Y178.599 E0.0757
G1 X176.455 Y178.885 E0.04075
G1 X175.606 Y179.339 E0.07608
G1 X175.153 Y179.527 E0.03876
G1 X174.215 Y179.813 E0.0775
G1 X173.728 Y179.911 E0.03926
G1 X172.747 Y180.008 E0.0779
G1 X172.499 Y180.02 E0.01962
G1 X132.491 Y180.019 E3.16168
G1 X132.243 Y180.007 E0.01962
G1 X131.272 Y179.911 E0.07711
G1 X130.787 Y179.814 E0.03909
G1 X129.85 Y179.529 E0.0774
G1 X129.395 Y179.34 E0.03894
G1 X128.546 Y178.886 E0.07608
G1 X128.117 Y178.6 E0.04075
G1 X127.376 Y177.993 E0.0757
G1 X127.007 Y177.624 E0.04124
G1 X126.4 Y176.883 E0.0757
G1 X126.114 Y176.453 E0.04081
G1 X125.661 Y175.606 E0.07591
G1 X125.473 Y175.153 E0.03876
G1 X125.187 Y174.215 E0.0775
G1 X125.089 Y173.728 E0.03926
G1 X124.992 Y172.749 E0.07775
G1 X124.98 Y172.501 E0.01962
G1 X124.981 Y132.491 E3.16183
G1 X124.993 Y132.243 E0.01962
G1 X125.089 Y131.271 E0.07719
G1 X125.186 Y130.785 E0.03916
G1 X125.471 Y129.849 E0.07732
G1 X125.66 Y129.395 E0.03886
G1 X126.113 Y128.548 E0.07591
G1 X126.399 Y128.117 E0.04088
G1 X127.005 Y127.377 E0.07559
M204 S1600
G0 F10800 X127.562 Y127.834
M204 S800
G1 F1800 X127.831 Y127.565 E0.03006
G1 X128.572 Y126.958 E0.0757
G1 X128.884 Y126.75 E0.02963
G1 X129.733 Y126.296 E0.07608
G1 X130.057 Y126.161 E0.02774
G1 X130.995 Y125.875 E0.0775
G1 X131.343 Y125.806 E0.02804
G1 X132.324 Y125.709 E0.0779
G1 X132.501 Y125.7 E0.01401
G1 X172.509 Y125.701 E3.16168
G1 X172.686 Y125.71 E0.01401
G1 X173.657 Y125.806 E0.07711
G1 X174.004 Y125.875 E0.02796
G1 X174.941 Y126.16 E0.0774
G1 X175.266 Y126.295 E0.02781
G1 X176.113 Y126.748 E0.07591
G1 X176.426 Y126.956 E0.0297
G1 X177.166 Y127.562 E0.07559
G1 X177.435 Y127.831 E0.03006
G1 X178.042 Y128.572 E0.0757
G1 X178.251 Y128.886 E0.02981
G1 X178.704 Y129.733 E0.07591
G1 X178.839 Y130.057 E0.02774
G1 X179.125 Y130.994 E0.07742
G1 X179.194 Y131.342 E0.02804
G1 X179.291 Y132.322 E0.07782
G1 X179.3 Y132.499 E0.01401
G1 X179.299 Y172.509 E3.16183
G1 X179.29 Y172.686 E0.01401
G1 X179.194 Y173.657 E0.07711
G1 X179.125 Y174.004 E0.02796
G1 X178.84 Y174.941 E0.0774
G1 X178.705 Y175.266 E0.02781
G1 X178.252 Y176.113 E0.07591
G1 X178.044 Y176.426 E0.0297
G1 X177.437 Y177.167 E0.0757
G1 X177.169 Y177.435 E0.02995
G1 X176.428 Y178.042 E0.0757
G1 X176.116 Y178.25 E0.02963
G1 X175.267 Y178.704 E0.07608
G1 X174.943 Y178.839 E0.02774
G1 X174.005 Y179.125 E0.0775
G1 X173.657 Y179.194 E0.02804
G1 X172.676 Y179.291 E0.0779
G1 X172.499 Y179.3 E0.01401
G1 X132.491 Y179.299 E3.16168
G1 X132.314 Y179.29 E0.01401
G1 X131.343 Y179.194 E0.07711
G1 X130.996 Y179.125 E0.02796
G1 X130.059 Y178.84 E0.0774
G1 X129.734 Y178.705 E0.02781
G1 X128.885 Y178.251 E0.07608
G1 X128.573 Y178.043 E0.02963
G1 X127.832 Y177.436 E0.0757
G1 X127.564 Y177.168 E0.02995
G1 X126.957 Y176.427 E0.0757
G1 X126.749 Y176.114 E0.0297
G1 X126.296 Y175.267 E0.07591
G1 X126.161 Y174.943 E0.02774
G1 X125.875 Y174.005 E0.0775
G1 X125.806 Y173.657 E0.02804
G1 X125.709 Y172.678 E0.07775
G1 X125.7 Y172.501 E0.01401
G1 X125.701 Y132.491 E3.16183
G1 X125.71 Y132.314 E0.01401
G1 X125.806 Y131.342 E0.07719
G1 X125.875 Y130.995 E0.02796
G1 X126.16 Y130.059 E0.07732
G1 X126.295 Y129.734 E0.02781
G1 X126.748 Y128.887 E0.07591
G1 X126.956 Y128.574 E0.0297
G1 X127.562 Y127.834 E0.07559
M204 S1600
G0 F10800 X128.119 Y128.29
M204 S800
G1 F1800 X128.288 Y128.122 E0.01883
G1 X129.029 Y127.515 E0.0757
G1 X129.224 Y127.385 E0.01852
G1 X130.073 Y126.931 E0.07608
G1 X130.267 Y126.85 E0.01661
G1 X131.205 Y126.564 E0.0775
G1 X131.414 Y126.522 E0.01685
G1 X132.395 Y126.425 E0.0779
G1 X132.501 Y126.42 E0.00839
G1 X172.509 Y126.421 E3.16168
G1 X172.615 Y126.426 E0.00839
G1 X173.586 Y126.522 E0.07711
G1 X173.794 Y126.564 E0.01677
G1 X174.731 Y126.849 E0.0774
G1 X174.926 Y126.93 E0.01669
G1 X175.773 Y127.383 E0.07591
G1 X175.97 Y127.513 E0.01865
G1 X176.71 Y128.119 E0.07559
G1 X176.878 Y128.288 E0.01883
G1 X177.485 Y129.029 E0.0757
G1 X177.616 Y129.226 E0.0187
G1 X178.069 Y130.073 E0.07591
G1 X178.15 Y130.267 E0.01661
G1 X178.436 Y131.204 E0.07742
G1 X178.478 Y131.413 E0.01685
G1 X178.575 Y132.393 E0.07782
G1 X178.58 Y132.499 E0.00839
G1 X178.579 Y172.509 E3.16183
G1 X178.574 Y172.615 E0.00839
G1 X178.478 Y173.586 E0.07711
G1 X178.436 Y173.794 E0.01677
G1 X178.151 Y174.731 E0.0774
G1 X178.07 Y174.926 E0.01669
G1 X177.617 Y175.773 E0.07591
G1 X177.487 Y175.969 E0.01859
G1 X176.88 Y176.71 E0.0757
G1 X176.712 Y176.878 E0.01878
G1 X175.971 Y177.485 E0.0757
G1 X175.776 Y177.615 E0.01852
G1 X174.927 Y178.069 E0.07608
G1 X174.733 Y178.15 E0.01661
G1 X173.795 Y178.436 E0.0775
G1 X173.586 Y178.478 E0.01685
G1 X172.605 Y178.575 E0.0779
G1 X172.499 Y178.58 E0.00839
G1 X132.491 Y178.579 E3.16168
G1 X132.385 Y178.574 E0.00839
G1 X131.414 Y178.478 E0.07711
G1 X131.206 Y178.436 E0.01677
G1 X130.269 Y178.151 E0.0774
G1 X130.074 Y178.07 E0.01669
G1 X129.225 Y177.616 E0.07608
G1 X129.03 Y177.486 E0.01852
G1 X128.289 Y176.879 E0.0757
G1 X128.121 Y176.711 E0.01878
G1 X127.514 Y175.97 E0.0757
G1 X127.384 Y175.774 E0.01859
G1 X126.931 Y174.927 E0.07591
G1 X126.85 Y174.733 E0.01661
G1 X126.564 Y173.795 E0.0775
G1 X126.522 Y173.586 E0.01685
G1 X126.425 Y172.607 E0.07775
G1 X126.42 Y172.501 E0.00839
G1 X126.421 Y132.491 E3.16183
G1 X126.426 Y132.385 E0.00839
G1 X126.522 Y131.413 E0.07719
G1 X126.564 Y131.204 E0.01685
G1 X126.849 Y130.268 E0.07732
G1 X126.93 Y130.074 E0.01661
G1 X127.383 Y129.227 E0.07591
G1 X127.513 Y129.03 E0.01865
G1 X128.119 Y128.29 E0.07559
M204 S1600
G0 F10800 X128.7 Y128.719
M204 S800
G1 F1800 X128.744 Y128.679 E0.0047
G1 X129.485 Y128.072 E0.0757
G1 X129.563 Y128.02 E0.00741
G1 X130.412 Y127.566 E0.07608
G1 X130.477 Y127.539 E0.00556
G1 X131.415 Y127.253 E0.0775
G1 X131.485 Y127.239 E0.00564
G1 X132.501 Y127.14 E0.08067
G1 X172.509 Y127.141 E3.16168
G1 X173.515 Y127.239 E0.07988
G1 X173.585 Y127.253 E0.00564
G1 X174.522 Y127.538 E0.0774
G1 X174.587 Y127.565 E0.00556
G1 X175.457 Y128.031 E0.07799
G1 X175.514 Y128.07 E0.00546
G1 X176.281 Y128.7 E0.07844
G1 X176.321 Y128.744 E0.0047
G1 X176.928 Y129.485 E0.0757
G1 X176.981 Y129.565 E0.00758
G1 X177.434 Y130.412 E0.07591
G1 X177.461 Y130.477 E0.00556
G1 X177.747 Y131.414 E0.07742
G1 X177.761 Y131.484 E0.00564
G1 X177.86 Y132.499 E0.08059
G1 X177.859 Y172.509 E3.16183
G1 X177.761 Y173.515 E0.07988
G1 X177.747 Y173.585 E0.00564
G1 X177.462 Y174.522 E0.0774
G1 X177.435 Y174.587 E0.00556
G1 X176.971 Y175.453 E0.07764
G1 X176.93 Y175.513 E0.00574
G1 X176.3 Y176.281 E0.0785
G1 X176.256 Y176.321 E0.0047
G1 X175.515 Y176.928 E0.0757
G1 X175.437 Y176.98 E0.00741
G1 X174.588 Y177.434 E0.07608
G1 X174.523 Y177.461 E0.00556
G1 X173.585 Y177.747 E0.0775
G1 X173.515 Y177.761 E0.00564
G1 X172.499 Y177.86 E0.08067
G1 X132.491 Y177.859 E3.16168
G1 X131.485 Y177.761 E0.07988
G1 X131.415 Y177.747 E0.00564
G1 X130.478 Y177.462 E0.0774
G1 X130.413 Y177.435 E0.00556
G1 X129.538 Y176.966 E0.07845
G1 X129.486 Y176.929 E0.00504
G1 X128.718 Y176.299 E0.0785
G1 X128.678 Y176.255 E0.0047
G1 X128.071 Y175.514 E0.0757
G1 X128.019 Y175.435 E0.00747
G1 X127.566 Y174.588 E0.07591
G1 X127.539 Y174.523 E0.00556
G1 X127.253 Y173.585 E0.0775
G1 X127.239 Y173.515 E0.00564
G1 X127.14 Y172.501 E0.08051
G1 X127.141 Y132.491 E3.16183
G1 X127.239 Y131.484 E0.07996
G1 X127.253 Y131.414 E0.00564
G1 X127.538 Y130.478 E0.07732
G1 X127.565 Y130.413 E0.00556
G1 X128.031 Y129.543 E0.07799
G1 X128.07 Y129.486 E0.00546
G1 X128.7 Y128.719 E0.07844
M204 S1600
;MESH:25mm15-box.stl
G0 F10800 X128.644 Y129.921
M204 S800
;TYPE:WALL-OUTER
G1 F1800 X129.222 Y129.217 E0.07198
G1 X129.92 Y128.645 E0.07132
G1 X130.722 Y128.217 E0.07184
G1 X131.592 Y127.951 E0.07189
G1 X132.515 Y127.86 E0.07329
G1 X172.495 Y127.861 E3.15946
G1 X173.408 Y127.951 E0.0725
G1 X174.277 Y128.216 E0.0718
G1 X175.079 Y128.644 E0.07184
G1 X175.783 Y129.222 E0.07198
G1 X176.355 Y129.92 E0.07132
G1 X176.783 Y130.722 E0.07184
G1 X177.049 Y131.592 E0.07189
G1 X177.14 Y132.515 E0.07329
G1 X177.139 Y172.495 E3.15946
G1 X177.049 Y173.408 E0.0725
G1 X176.784 Y174.277 E0.0718
G1 X176.356 Y175.079 E0.07184
G1 X175.778 Y175.783 E0.07198
G1 X175.08 Y176.355 E0.07132
G1 X174.278 Y176.783 E0.07184
G1 X173.408 Y177.049 E0.07189
G1 X172.485 Y177.14 E0.07329
G1 X132.505 Y177.139 E3.15946
G1 X131.592 Y177.049 E0.0725
G1 X130.723 Y176.784 E0.0718
G1 X129.921 Y176.356 E0.07184
G1 X129.217 Y175.778 E0.07198
G1 X128.645 Y175.08 E0.07132
G1 X128.217 Y174.278 E0.07184
G1 X127.951 Y173.408 E0.07189
G1 X127.86 Y172.485 E0.07329
G1 X127.861 Y132.5 E3.15986
G1 X127.951 Y131.592 E0.07211
G1 X128.216 Y130.723 E0.0718
G1 X128.644 Y129.921 E0.07184
G1 X129.222 Y129.217 Z0.301 E0.07198
G1 X129.92 Y128.645 Z0.303 E0.07132
G1 X130.722 Y128.217 Z0.304 E0.07184
G1 X131.592 Y127.951 Z0.306 E0.07189
G1 X132.515 Y127.86 Z0.307 E0.07329
G1 X172.495 Y127.861 Z0.371 E3.15947
G1 X173.408 Y127.951 Z0.372 E0.0725
G1 X174.277 Y128.216 Z0.374 E0.0718
G1 X175.079 Y128.644 Z0.375 E0.07184
G1 X175.783 Y129.222 Z0.376 E0.07198
G1 X176.355 Y129.92 Z0.378 E0.07132
G1 X176.783 Y130.722 Z0.379 E0.07184
G1 X177.049 Y131.592 Z0.381 E0.07189
G1 X177.14 Y132.515 Z0.382 E0.07329
G1 X177.139 Y172.495 Z0.446 E3.15947
G1 X177.049 Y173.408 Z0.447 E0.0725
G1 X176.784 Y174.277 Z0.449 E0.0718
G1 X176.356 Y175.079 Z0.45 E0.07184
G1 X175.778 Y175.783 Z0.451 E0.07198
G1 X175.08 Y176.355 Z0.453 E0.07132
G1 X174.278 Y176.783 Z0.454 E0.07184
G1 X173.408 Y177.049 Z0.456 E0.07189
G1 X172.485 Y177.14 Z0.457 E0.07329
G1 X132.505 Y177.139 Z0.521 E3.15947
G1 X131.592 Y177.049 Z0.522 E0.0725
G1 X130.723 Y176.784 Z0.524 E0.0718
G1 X129.921 Y176.356 Z0.525 E0.07184
G1 X129.217 Y175.778 Z0.526 E0.07198
G1 X128.645 Y175.08 Z0.528 E0.07132
G1 X128.217 Y174.278 Z0.529 E0.07184
G1 X127.951 Y173.408 Z0.531 E0.07189
G1 X127.86 Y172.485 Z0.532 E0.07329
G1 X127.861 Y132.5 Z0.596 E3.15986
G1 X127.951 Y131.592 Z0.597 E0.07211
G1 X128.216 Y130.723 Z0.599 E0.0718
G1 X128.644 Y129.921 Z0.6 E0.07184
;TIME_ELAPSED:50.258044
;LAYER:1
M204 S600
;TYPE:WALL-OUTER
;MESH:25mm15-box.stl
G1 X129.206 Y129.236 Z0.601 E0.07002
G1 X129.234 Y129.208 E0.00313
G1 X129.915 Y128.649 Z0.603 E0.06963
G1 X129.94 Y128.635 E0.00226
G1 X130.716 Y128.221 Z0.604 E0.06951
G1 X130.757 Y128.207 E0.00342
G1 X131.585 Y127.953 Z0.606 E0.06844
G1 X132.515 Y127.86 Z0.607 E0.07386
G1 X172.483 Y127.86 Z0.671 E3.15852
G1 X173.414 Y127.952 Z0.672 E0.07393
G1 X174.241 Y128.205 Z0.673 E0.06834
G1 X174.282 Y128.219 Z0.674 E0.00342
G1 X175.058 Y128.633 Z0.675 E0.06951
G1 X175.083 Y128.647 E0.00226
G1 X175.764 Y129.206 Z0.676 E0.06963
G1 X175.792 Y129.234 E0.00313
G1 X176.351 Y129.915 Z0.678 E0.06963
G1 X176.365 Y129.94 E0.00226
G1 X176.779 Y130.716 Z0.679 E0.06951
G1 X176.793 Y130.757 E0.00342
G1 X177.047 Y131.585 Z0.681 E0.06844
G1 X177.14 Y132.515 Z0.682 E0.07386
G1 X177.14 Y172.483 Z0.746 E3.15852
G1 X177.048 Y173.414 Z0.747 E0.07393
G1 X176.795 Y174.241 Z0.748 E0.06834
G1 X176.781 Y174.282 Z0.749 E0.00342
G1 X176.367 Y175.058 Z0.75 E0.06951
G1 X176.353 Y175.083 E0.00226
G1 X175.794 Y175.764 Z0.751 E0.06963
G1 X175.766 Y175.792 E0.00313
G1 X175.085 Y176.351 Z0.753 E0.06963
G1 X175.06 Y176.366 E0.0023
G1 X174.284 Y176.779 Z0.754 E0.06947
G1 X174.243 Y176.794 E0.00345
G1 X173.415 Y177.047 Z0.756 E0.06842
G1 X172.485 Y177.14 Z0.757 E0.07386
G1 X132.517 Y177.14 Z0.821 E3.15852
G1 X131.586 Y177.048 Z0.822 E0.07393
G1 X130.759 Y176.795 Z0.823 E0.06834
G1 X130.718 Y176.781 Z0.824 E0.00342
G1 X129.942 Y176.367 Z0.825 E0.06951
G1 X129.917 Y176.353 E0.00226
G1 X129.236 Y175.794 Z0.826 E0.06963
G1 X129.208 Y175.766 E0.00313
G1 X128.649 Y175.085 Z0.828 E0.06963
G1 X128.634 Y175.06 E0.0023
G1 X128.221 Y174.284 Z0.829 E0.06947
G1 X128.206 Y174.243 E0.00345
G1 X127.953 Y173.415 Z0.831 E0.06842
G1 X127.86 Y172.485 Z0.832 E0.07386
G1 X127.86 Y132.517 Z0.896 E3.15852
G1 X127.952 Y131.586 Z0.897 E0.07393
G1 X128.205 Y130.759 Z0.898 E0.06834
G1 X128.219 Y130.718 Z0.899 E0.00342
G1 X128.633 Y129.942 Z0.9 E0.06951
G1 X128.648 Y129.917 E0.0023
;TIME_ELAPSED:56.631102
;LAYER:2
;TYPE:WALL-OUTER
;MESH:25mm15-box.stl
G1 X129.187 Y129.258 Z0.901 E0.06728
G1 X129.256 Y129.189 Z0.902 E0.00771
G1 X129.896 Y128.666 Z0.903 E0.06532
