;FLAVOR:Marlin
;TIME:1995
;Filament used: 4.47666m
;Layer height: 0.3
;MINX:93.611
;MINY:93.611
;MINZ:0.3
;MAXX:211.389
;MAXY:211.389
;MAXZ:9.9
;LINEARADVANCEPROCESSED
;ZOFFSETPROCESSED
;Generated with Cura_SteamEngine 4.8.0
M140 S90
M105
M190 S90
M104 S245
M105
M109 S245
M82 ;absolute extrusion mode
; XY Comp -> Scale 101 25
PRINT_START
BED_MESH_PROFILE LOAD=HOT
SET_PRESSURE_ADVANCE ADVANCE=0.045
; SET_GCODE_OFFSET Z=0.01
M141 S50
M82 ;absolute extrusion mode
; EXTRUDER START
M83 ;relative extrusion mode
M83 ;relative extrusion mode
G1 F3300 E-0.35
;LAYER_COUNT:33
M900 K0.045000 T0 ;added by LinearAdvanceSettingPlugin
;LAYER:0
M107
M204 S1600
G0 F10800 X94.921 Y94.794 Z0.31 ;adjusted by z offset
G92 Z0.3 ;consider this the original z before offset
M204 S800
;TYPE:SKIRT
G1 F3300 E0.35
G1 F1800 X95.398 Y94.407 E0.04854
G1 X95.826 Y94.132 E0.0402
G1 X96.4 Y93.88 E0.04954
G1 X96.885 Y93.727 E0.04019
G1 X97.435 Y93.64 E0.044
G1 X97.865 Y93.611 E0.03406
G1 X207.143 Y93.612 E8.63581
G1 X207.856 Y93.68 E0.0566
G1 X208.353 Y93.79 E0.04023
G1 X208.926 Y94.015 E0.04865
G1 X209.376 Y94.251 E0.04016
G1 X209.807 Y94.563 E0.04205
G1 X210.188 Y94.9 E0.0402
G1 X210.594 Y95.399 E0.05084
G1 X210.869 Y95.827 E0.0402
G1 X211.105 Y96.353 E0.04556
G1 X211.263 Y96.836 E0.04016
G1 X211.361 Y97.435 E0.04797
G1 X211.389 Y97.862 E0.03382
G1 X211.389 Y105.955 E0.63956
G1 X211.326 Y106.644 E0.05468
G1 X211.221 Y107.141 E0.04014
G1 X211.005 Y107.707 E0.04788
G1 X210.773 Y108.16 E0.04022
G1 X210.415 Y108.654 E0.04821
G1 X210.074 Y109.032 E0.04023
G1 X209.584 Y109.426 E0.04969
G1 X209.155 Y109.698 E0.04014
G1 X208.612 Y109.937 E0.04688
G1 X208.127 Y110.091 E0.04021
G1 X207.593 Y110.17 E0.04266
G1 X207.067 Y110.203 E0.04165
G1 X206.864 Y110.209 E0.01605
G1 X201.271 Y110.209 E0.44199
G1 X201.271 Y116.073 E0.46341
G1 X201.208 Y116.762 E0.05468
G1 X201.103 Y117.259 E0.04014
G1 X200.887 Y117.825 E0.04788
G1 X200.655 Y118.278 E0.04022
G1 X200.297 Y118.772 E0.04821
G1 X199.956 Y119.15 E0.04023
G1 X199.467 Y119.543 E0.04958
G1 X199.038 Y119.816 E0.04018
G1 X198.483 Y120.059 E0.04788
G1 X197.997 Y120.211 E0.04024
G1 X197.444 Y120.299 E0.04425
G1 X197.017 Y120.327 E0.03382
G1 X153.506 Y120.326 E3.4385
G1 X152.793 Y120.258 E0.0566
G1 X152.296 Y120.148 E0.04023
G1 X151.723 Y119.923 E0.04865
G1 X151.273 Y119.687 E0.04016
G1 X150.82 Y119.356 E0.04434
G1 X150.442 Y119.016 E0.04018
G1 X150.043 Y118.522 E0.05018
G1 X149.771 Y118.093 E0.04014
G1 X149.532 Y117.55 E0.04688
G1 X149.378 Y117.065 E0.04021
G1 X149.299 Y116.531 E0.04266
G1 X149.266 Y116.006 E0.04157
G1 X149.26 Y115.803 E0.01605
G1 X149.26 Y110.209 E0.44207
G1 X110.209 Y110.209 E3.08605
G1 X110.209 Y149.26 E3.08605
G1 X116.081 Y149.261 E0.46404
G1 X116.794 Y149.329 E0.0566
G1 X117.291 Y149.439 E0.04023
G1 X117.864 Y149.664 E0.04865
G1 X118.314 Y149.9 E0.04016
G1 X118.767 Y150.231 E0.04434
G1 X119.145 Y150.571 E0.04018
G1 X119.543 Y151.064 E0.05007
G1 X119.816 Y151.493 E0.04018
G1 X120.059 Y152.048 E0.04788
G1 X120.212 Y152.534 E0.04026
G1 X120.299 Y153.089 E0.0444
G1 X120.327 Y153.511 E0.03342
G1 X120.327 Y197.017 E3.43811
G1 X120.264 Y197.706 E0.05468
G1 X120.159 Y198.203 E0.04014
G1 X119.943 Y198.769 E0.04788
G1 X119.711 Y199.222 E0.04022
G1 X119.353 Y199.716 E0.04821
G1 X119.012 Y200.094 E0.04023
G1 X118.522 Y200.488 E0.04969
G1 X118.093 Y200.76 E0.04014
G1 X117.55 Y200.999 E0.04688
G1 X117.065 Y201.153 E0.04021
G1 X116.531 Y201.232 E0.04266
G1 X116.005 Y201.265 E0.04165
G1 X115.802 Y201.271 E0.01605
G1 X110.209 Y201.271 E0.44199
G1 X110.209 Y207.135 E0.46341
G1 X110.146 Y207.824 E0.05468
G1 X110.041 Y208.321 E0.04014
G1 X109.825 Y208.887 E0.04788
G1 X109.593 Y209.34 E0.04022
G1 X109.235 Y209.834 E0.04821
G1 X108.894 Y210.212 E0.04023
G1 X108.404 Y210.606 E0.04969
G1 X107.975 Y210.878 E0.04014
G1 X107.432 Y211.117 E0.04688
G1 X106.947 Y211.271 E0.04021
G1 X106.425 Y211.349 E0.04171
G1 X105.714 Y211.389 E0.05628
G1 X97.857 Y211.388 E0.62091
G1 X97.144 Y211.32 E0.0566
G1 X96.647 Y211.21 E0.04023
G1 X96.074 Y210.985 E0.04865
G1 X95.624 Y210.749 E0.04016
G1 X95.193 Y210.437 E0.04205
G1 X94.812 Y210.1 E0.0402
G1 X94.406 Y209.601 E0.05084
G1 X94.131 Y209.173 E0.0402
G1 X93.895 Y208.647 E0.04556
G1 X93.737 Y208.164 E0.04016
G1 X93.639 Y207.565 E0.04797
G1 X93.611 Y207.138 E0.03382
G1 X93.611 Y97.865 E8.63542
G1 X93.676 Y97.166 E0.05548
G1 X93.782 Y96.669 E0.04016
G1 X94.002 Y96.099 E0.04828
G1 X94.235 Y95.647 E0.04019
G1 X94.58 Y95.172 E0.04639
G1 X94.921 Y94.794 E0.04023
M204 S1600
G0 F10800 X95.626 Y95.138
M204 S800
G1 F1800 X95.834 Y94.98 E0.02064
G1 X96.416 Y94.65 E0.05287
G1 X96.669 Y94.548 E0.02156
G1 X97.277 Y94.387 E0.0497
G1 X97.865 Y94.331 E0.04668
G1 X207.143 Y94.332 E8.63581
G1 X207.756 Y94.393 E0.04868
G1 X208.402 Y94.573 E0.053
G1 X208.642 Y94.676 E0.02064
G1 X209.168 Y94.982 E0.04809
G1 X209.705 Y95.438 E0.05567
G1 X210.021 Y95.835 E0.0401
G1 X210.34 Y96.39 E0.05059
G1 X210.44 Y96.63 E0.02055
G1 X210.612 Y97.267 E0.05214
G1 X210.669 Y97.862 E0.04724
G1 X210.669 Y105.955 E0.63956
G1 X210.612 Y106.55 E0.04724
G1 X210.44 Y107.19 E0.05237
G1 X210.34 Y107.43 E0.02055
G1 X210.011 Y107.998 E0.05187
G1 X209.54 Y108.545 E0.05704
G1 X209.152 Y108.85 E0.039
G1 X208.588 Y109.169 E0.05121
G1 X207.912 Y109.401 E0.05648
G1 X207.548 Y109.451 E0.02904
G1 X207.022 Y109.484 E0.04165
G1 X206.864 Y109.489 E0.01249
G1 X200.551 Y109.489 E0.49889
G1 X200.551 Y116.073 E0.52031
G1 X200.494 Y116.668 E0.04724
G1 X200.322 Y117.308 E0.05237
G1 X200.222 Y117.548 E0.02055
G1 X199.893 Y118.116 E0.05187
G1 X199.422 Y118.663 E0.05704
G1 X199.034 Y118.968 E0.039
G1 X198.46 Y119.292 E0.05209
G1 X198.214 Y119.391 E0.02096
G1 X197.605 Y119.551 E0.04976
G1 X197.017 Y119.607 E0.04668
G1 X153.506 Y119.606 E3.4385
G1 X152.893 Y119.545 E0.04868
G1 X152.247 Y119.365 E0.053
G1 X152.007 Y119.262 E0.02064
G1 X151.468 Y118.946 E0.04938
G1 X150.927 Y118.481 E0.05638
G1 X150.619 Y118.09 E0.03933
G1 X150.3 Y117.526 E0.05121
G1 X150.068 Y116.85 E0.05648
G1 X150.018 Y116.486 E0.02904
G1 X149.985 Y115.961 E0.04157
G1 X149.98 Y115.803 E0.01249
G1 X149.98 Y109.489 E0.49897
G1 X109.489 Y109.489 E3.19985
G1 X109.489 Y149.98 E3.19985
G1 X116.081 Y149.981 E0.52094
G1 X116.694 Y150.042 E0.04868
G1 X117.34 Y150.222 E0.053
G1 X117.58 Y150.325 E0.02064
G1 X118.119 Y150.641 E0.04938
G1 X118.66 Y151.106 E0.05638
G1 X118.968 Y151.497 E0.03933
G1 X119.291 Y152.07 E0.05198
G1 X119.391 Y152.318 E0.02113
G1 X119.552 Y152.932 E0.05016
G1 X119.607 Y153.511 E0.04596
G1 X119.607 Y197.017 E3.43811
G1 X119.55 Y197.612 E0.04724
G1 X119.378 Y198.252 E0.05237
G1 X119.278 Y198.492 E0.02055
G1 X118.949 Y199.06 E0.05187
G1 X118.478 Y199.607 E0.05704
G1 X118.09 Y199.912 E0.039
G1 X117.526 Y200.231 E0.05121
G1 X116.85 Y200.463 E0.05648
G1 X116.486 Y200.513 E0.02904
G1 X115.96 Y200.546 E0.04165
G1 X115.802 Y200.551 E0.01249
G1 X109.489 Y200.551 E0.49889
G1 X109.489 Y207.135 E0.52031
G1 X109.432 Y207.73 E0.04724
G1 X109.26 Y208.37 E0.05237
G1 X109.16 Y208.61 E0.02055
G1 X108.831 Y209.178 E0.05187
G1 X108.36 Y209.725 E0.05704
G1 X107.972 Y210.03 E0.039
G1 X107.408 Y210.349 E0.05121
G1 X106.732 Y210.581 E0.05648
G1 X105.881 Y210.663 E0.06756
G1 X105.714 Y210.669 E0.01321
G1 X97.857 Y210.668 E0.62091
G1 X97.244 Y210.607 E0.04868
G1 X96.598 Y210.427 E0.053
G1 X96.358 Y210.324 E0.02064
G1 X95.832 Y210.018 E0.04809
G1 X95.295 Y209.562 E0.05567
G1 X94.979 Y209.165 E0.0401
G1 X94.66 Y208.61 E0.05059
G1 X94.56 Y208.37 E0.02055
G1 X94.388 Y207.733 E0.05214
G1 X94.331 Y207.138 E0.04724
G1 X94.331 Y97.865 E8.63542
G1 X94.389 Y97.262 E0.04787
G1 X94.564 Y96.619 E0.05266
G1 X94.665 Y96.379 E0.02058
G1 X94.989 Y95.821 E0.05099
G1 X95.151 Y95.61 E0.02102
G1 X95.626 Y95.138 E0.05292
M204 S1600
G0 F10800 X95.722 Y96.049
M204 S800
G1 F1800 X96.269 Y95.554 E0.0583
G1 X96.938 Y95.216 E0.05923
G1 X97.626 Y95.067 E0.05563
G1 X97.865 Y95.051 E0.01893
G1 X207.143 Y95.052 E8.63581
G1 X207.657 Y95.106 E0.04084
G1 X208.358 Y95.338 E0.05835
G1 X208.939 Y95.711 E0.05456
G1 X209.447 Y96.27 E0.05969
G1 X209.776 Y96.907 E0.05666
G1 X209.933 Y97.625 E0.05808
G1 X209.949 Y97.862 E0.01877
G1 X209.949 Y105.955 E0.63956
G1 X209.899 Y106.456 E0.03979
G1 X209.676 Y107.153 E0.05783
G1 X209.273 Y107.776 E0.05864
G1 X208.719 Y108.274 E0.05887
G1 X208.069 Y108.603 E0.05757
G1 X207.503 Y108.732 E0.04588
G1 X206.977 Y108.765 E0.04165
G1 X206.864 Y108.769 E0.00894
G1 X199.831 Y108.769 E0.55579
G1 X199.831 Y116.073 E0.57721
G1 X199.781 Y116.574 E0.03979
G1 X199.558 Y117.271 E0.05783
G1 X199.155 Y117.894 E0.05864
G1 X198.601 Y118.392 E0.05887
G1 X197.945 Y118.723 E0.05807
G1 X197.254 Y118.871 E0.05585
G1 X197.017 Y118.887 E0.01877
G1 X153.506 Y118.886 E3.4385
G1 X152.992 Y118.832 E0.04084
G1 X152.291 Y118.6 E0.05835
G1 X151.696 Y118.213 E0.05609
G1 X151.195 Y117.657 E0.05914
G1 X150.866 Y117.007 E0.05757
G1 X150.737 Y116.441 E0.04588
G1 X150.704 Y115.916 E0.04157
G1 X150.7 Y115.803 E0.00894
G1 X150.7 Y108.769 E0.55587
G1 X108.769 Y108.769 E3.31364
G1 X108.769 Y150.7 E3.31364
G1 X116.081 Y150.701 E0.57784
G1 X116.595 Y150.755 E0.04084
G1 X117.296 Y150.987 E0.05835
G1 X117.891 Y151.374 E0.05609
G1 X118.392 Y151.93 E0.05914
G1 X118.723 Y152.587 E0.05814
G1 X118.872 Y153.276 E0.05571
G1 X118.887 Y153.511 E0.01861
G1 X118.887 Y197.017 E3.43811
G1 X118.837 Y197.518 E0.03979
G1 X118.614 Y198.215 E0.05783
G1 X118.211 Y198.838 E0.05864
G1 X117.657 Y199.336 E0.05887
G1 X117.007 Y199.665 E0.05757
G1 X116.441 Y199.794 E0.04588
G1 X115.915 Y199.827 E0.04165
G1 X115.802 Y199.831 E0.00894
G1 X108.769 Y199.831 E0.55579
G1 X108.769 Y207.135 E0.57721
G1 X108.719 Y207.636 E0.03979
G1 X108.496 Y208.333 E0.05783
G1 X108.093 Y208.956 E0.05864
G1 X107.539 Y209.454 E0.05887
G1 X106.889 Y209.783 E0.05757
G1 X106.329 Y209.912 E0.04541
G1 X105.714 Y209.949 E0.04869
G1 X97.857 Y209.948 E0.62091
G1 X97.343 Y209.894 E0.04084
G1 X96.642 Y209.662 E0.05835
G1 X96.061 Y209.289 E0.05456
G1 X95.553 Y208.73 E0.05969
G1 X95.224 Y208.093 E0.05666
G1 X95.067 Y207.375 E0.05808
G1 X95.051 Y207.138 E0.01877
G1 X95.051 Y97.865 E8.63542
G1 X95.103 Y97.357 E0.04036
G1 X95.329 Y96.658 E0.05805
G1 X95.722 Y96.049 E0.05728
M204 S1600
G0 F10800 X96.293 Y96.487
M204 S800
G1 F1800 X96.705 Y96.127 E0.04324
G1 X97.207 Y95.883 E0.04411
G1 X97.722 Y95.781 E0.04149
G1 X97.865 Y95.771 E0.01133
G1 X207.143 Y95.772 E8.63581
G1 X207.557 Y95.819 E0.03293
G1 X208.074 Y96 E0.04329
G1 X208.504 Y96.286 E0.04081
G1 X208.874 Y96.706 E0.04423
G1 X209.111 Y97.184 E0.04216
G1 X209.22 Y97.72 E0.04322
G1 X209.229 Y97.862 E0.01124
G1 X209.229 Y105.955 E0.63956
G1 X209.185 Y106.362 E0.03235
G1 X209.011 Y106.876 E0.04288
G1 X208.703 Y107.337 E0.04381
G1 X208.287 Y107.699 E0.04358
G1 X207.797 Y107.936 E0.04301
G1 X207.458 Y108.014 E0.02749
G1 X206.932 Y108.047 E0.04165
G1 X206.864 Y108.049 E0.00538
G1 X199.111 Y108.049 E0.61269
G1 X199.111 Y116.073 E0.63411
G1 X199.067 Y116.48 E0.03235
G1 X198.893 Y116.994 E0.04288
G1 X198.585 Y117.455 E0.04381
G1 X198.168 Y117.817 E0.04364
G1 X197.676 Y118.055 E0.04319
G1 X197.159 Y118.158 E0.04166
G1 X197.017 Y118.167 E0.01124
G1 X153.506 Y118.166 E3.4385
G1 X153.092 Y118.119 E0.03293
G1 X152.575 Y117.938 E0.04329
G1 X152.134 Y117.642 E0.04197
G1 X151.77 Y117.225 E0.04374
G1 X151.533 Y116.735 E0.04301
G1 X151.455 Y116.396 E0.02749
G1 X151.422 Y115.871 E0.04157
G1 X151.42 Y115.803 E0.00538
G1 X151.42 Y108.049 E0.61277
G1 X108.049 Y108.049 E3.42744
G1 X108.049 Y151.42 E3.42744
G1 X116.081 Y151.421 E0.63474
G1 X116.495 Y151.468 E0.03293
G1 X117.012 Y151.649 E0.04329
G1 X117.453 Y151.945 E0.04197
G1 X117.817 Y152.363 E0.0438
G1 X118.056 Y152.856 E0.0433
G1 X118.158 Y153.37 E0.04141
G1 X118.167 Y153.511 E0.01117
G1 X118.167 Y197.017 E3.43811
G1 X118.123 Y197.424 E0.03235
G1 X117.949 Y197.938 E0.04288
G1 X117.641 Y198.399 E0.04381
G1 X117.225 Y198.761 E0.04358
G1 X116.735 Y198.998 E0.04301
G1 X116.396 Y199.076 E0.02749
G1 X115.87 Y199.109 E0.04165
G1 X115.802 Y199.111 E0.00538
G1 X108.049 Y199.111 E0.61269
G1 X108.049 Y207.135 E0.63411
G1 X108.005 Y207.542 E0.03235
G1 X107.831 Y208.056 E0.04288
G1 X107.523 Y208.517 E0.04381
G1 X107.107 Y208.879 E0.04358
G1 X106.617 Y209.116 E0.04301
G1 X106.282 Y209.194 E0.02718
G1 X105.714 Y209.229 E0.04497
G1 X97.857 Y209.228 E0.62091
G1 X97.443 Y209.181 E0.03293
G1 X96.926 Y209 E0.04329
G1 X96.496 Y208.714 E0.04081
G1 X96.126 Y208.294 E0.04423
G1 X95.889 Y207.816 E0.04216
G1 X95.78 Y207.28 E0.04322
G1 X95.771 Y207.138 E0.01124
G1 X95.771 Y97.865 E8.63542
G1 X95.817 Y97.453 E0.03276
G1 X95.993 Y96.937 E0.04308
G1 X96.293 Y96.487 E0.04274
M204 S1600
G0 F10800 X96.932 Y96.858
M204 S800
G1 F1800 X97.223 Y96.653 E0.02813
G1 X97.563 Y96.528 E0.02863
G1 X97.865 Y96.491 E0.02404
G1 X207.143 Y96.492 E8.63581
G1 X207.55 Y96.558 E0.03258
G1 X207.865 Y96.705 E0.02747
G1 X208.14 Y96.929 E0.02803
G1 X208.346 Y97.221 E0.02824
G1 X208.471 Y97.552 E0.02796
G1 X208.509 Y97.862 E0.02468
G1 X208.509 Y105.955 E0.63956
G1 X208.446 Y106.359 E0.03231
G1 X208.299 Y106.681 E0.02797
G1 X208.063 Y106.966 E0.02924
G1 X207.774 Y107.168 E0.02786
G1 X207.413 Y107.295 E0.03024
G1 X206.864 Y107.329 E0.04347
G1 X198.391 Y107.329 E0.66959
G1 X198.391 Y116.073 E0.691
G1 X198.328 Y116.477 E0.03231
G1 X198.181 Y116.799 E0.02797
G1 X197.945 Y117.084 E0.02924
G1 X197.653 Y117.288 E0.02815
G1 X197.32 Y117.41 E0.02803
G1 X197.017 Y117.447 E0.02412
G1 X153.506 Y117.446 E3.4385
G1 X153.099 Y117.38 E0.03258
G1 X152.782 Y117.232 E0.02765
G1 X152.503 Y117.001 E0.02862
G1 X152.301 Y116.712 E0.02786
G1 X152.174 Y116.351 E0.03024
G1 X152.14 Y115.803 E0.04339
G1 X152.14 Y107.329 E0.66967
G1 X107.329 Y107.329 E3.54124
G1 X107.329 Y152.14 E3.54124
G1 X116.081 Y152.141 E0.69164
G1 X116.488 Y152.207 E0.03258
G1 X116.805 Y152.355 E0.02765
G1 X117.084 Y152.586 E0.02862
G1 X117.288 Y152.877 E0.02808
G1 X117.411 Y153.213 E0.02828
G1 X117.447 Y153.511 E0.02372
G1 X117.447 Y197.017 E3.43811
G1 X117.384 Y197.421 E0.03231
G1 X117.237 Y197.743 E0.02797
G1 X117.001 Y198.028 E0.02924
G1 X116.712 Y198.23 E0.02786
G1 X116.351 Y198.357 E0.03024
G1 X115.802 Y198.391 E0.04347
G1 X107.329 Y198.391 E0.66959
G1 X107.329 Y207.135 E0.691
G1 X107.266 Y207.539 E0.03231
G1 X107.119 Y207.861 E0.02797
G1 X106.883 Y208.146 E0.02924
G1 X106.594 Y208.348 E0.02786
G1 X106.234 Y208.475 E0.03017
G1 X105.714 Y208.509 E0.04118
G1 X97.857 Y208.508 E0.62091
G1 X97.45 Y208.442 E0.03258
G1 X97.135 Y208.295 E0.02747
G1 X96.86 Y208.071 E0.02803
G1 X96.654 Y207.779 E0.02824
G1 X96.529 Y207.448 E0.02796
G1 X96.491 Y207.138 E0.02468
G1 X96.491 Y97.865 E8.63542
G1 X96.555 Y97.456 E0.03271
G1 X96.702 Y97.137 E0.02776
G1 X96.932 Y96.858 E0.02857
M204 S1600
G1 F3300 E-0.35
;MESH:Backlash_Calibration_r3.stl
G0 F10800 X167.317 Y101.55
M204 S800
;TYPE:WALL-OUTER
G1 F3300 E0.35
G1 F1800 X167.317 Y112.388 E0.85648
G1 X178.155 Y112.388 E0.85648
G1 X178.155 Y101.55 E0.85648
G1 X167.317 Y101.55 E0.85648
M204 S1600
G0 F10800 X167.317 Y102.55
G1 F3300 E-0.35
G0 F10800 X182.494 Y101.55
M204 S800
G1 F3300 E0.35
G1 F1800 X182.494 Y107.329 E0.45669
G1 X188.273 Y107.329 E0.45669
G1 X188.273 Y101.55 E0.45669
G1 X182.494 Y101.55 E0.45669
M204 S1600
G0 F10800 X182.494 Y102.55
G1 F3300 E-0.35
G0 F10800 X197.671 Y106.609
M204 S800
G1 F3300 E0.35
G1 F1800 X197.671 Y116.052 E0.74624
G1 X197.581 Y116.398 E0.02825
G1 X197.338 Y116.639 E0.02705
G1 X196.996 Y116.727 E0.02791
G1 X153.531 Y116.726 E3.43487
G1 X153.183 Y116.633 E0.02847
G1 X152.948 Y116.394 E0.02649
G1 X152.888 Y116.248 E0.01247
G1 X152.86 Y115.802 E0.03532
G1 X152.86 Y106.609 E0.72649
G1 X106.609 Y106.609 E3.65504
G1 X106.609 Y152.86 E3.65504
G1 X116.056 Y152.861 E0.74656
G1 X116.404 Y152.954 E0.02847
G1 X116.639 Y153.193 E0.02649
G1 X116.727 Y153.535 E0.02791
G1 X116.727 Y196.996 E3.43455
G1 X116.637 Y197.342 E0.02825
G1 X116.394 Y197.583 E0.02705
G1 X116.248 Y197.643 E0.01247
G1 X115.796 Y197.671 E0.03579
G1 X106.609 Y197.671 E0.72601
G1 X106.609 Y207.114 E0.74624
G1 X106.519 Y207.46 E0.02825
G1 X106.276 Y207.701 E0.02705
G1 X106.129 Y207.761 E0.01255
G1 X105.705 Y207.789 E0.03358
G1 X97.882 Y207.788 E0.61822
G1 X97.534 Y207.695 E0.02847
G1 X97.302 Y207.463 E0.02593
