;FLAVOR:Marlin
;TIME:5324
;Filament used: 5.47958m
;Layer height: 0.3
;MINX:119.496
;MINY:145.984
;MINZ:0.3
;MAXX:185.506
;MAXY:159.515
;MAXZ:74.7
;POSTPROCESSED
;LINEARADVANCEPROCESSED
;ZOFFSETPROCESSED
;Generated with Cura_SteamEngine 4.8.0
M140 S90
M105
M190 S90
M104 S245
M105
M109 S245
M82 ;absolute extrusion mode
; XY Comp -> Scale 101 25
PRINT_START
BED_MESH_PROFILE LOAD=HOT
SET_PRESSURE_ADVANCE ADVANCE=0.03
; SET_GCODE_OFFSET Z=0.03
M141 S50
M82 ;absolute extrusion mode
; EXTRUDER START
M83 ;relative extrusion mode
M83 ;relative extrusion mode
G1 F3300 E-1.3
;LAYER_COUNT:249
M900 K0.030000 T0 ;added by LinearAdvanceSettingPlugin
;LAYER:0
M107
M204 S1600
G0 F10800 X122.881 Y146.646 Z0.33 ;adjusted by z offset
G92 Z0.3 ;consider this the original z before offset
M204 S800
;TYPE:SKIRT
G1 F3300 E1.3
G1 F1800 X123.315 Y146.38 E0.03931
G1 X123.785 Y146.186 E0.03927
G1 X124.279 Y146.068 E0.03922
G1 X124.607 Y146.033 E0.02548
G1 X125.421 Y145.99 E0.06295
G1 X125.823 Y145.984 E0.03105
G1 X171.291 Y145.985 E3.5115
G1 X171.798 Y146.025 E0.03928
G1 X172.293 Y146.144 E0.03932
G1 X172.763 Y146.339 E0.0393
G1 X173.196 Y146.605 E0.03925
G1 X173.583 Y146.935 E0.03928
G1 X173.913 Y147.322 E0.03928
G1 X174.179 Y147.756 E0.03931
G1 X174.373 Y148.226 E0.03927
G1 X174.492 Y148.721 E0.03932
G1 X174.531 Y149.225 E0.03904
G1 X174.531 Y156.275 E0.54447
G1 X174.491 Y156.782 E0.03928
G1 X174.372 Y157.277 E0.03932
G1 X174.177 Y157.747 E0.0393
G1 X173.911 Y158.18 E0.03925
G1 X173.581 Y158.567 E0.03928
G1 X173.194 Y158.897 E0.03928
G1 X172.76 Y159.163 E0.03931
G1 X172.29 Y159.357 E0.03927
G1 X171.795 Y159.476 E0.03932
G1 X171.291 Y159.515 E0.03904
G1 X125.741 Y159.515 E3.51783
G1 X125.186 Y159.501 E0.04288
G1 X124.577 Y159.464 E0.04712
G1 X124.074 Y159.392 E0.03924
G1 X123.588 Y159.242 E0.03928
G1 X123.131 Y159.017 E0.03934
G1 X122.716 Y158.724 E0.03923
G1 X122.351 Y158.369 E0.03932
G1 X122.046 Y157.962 E0.03928
G1 X121.809 Y157.512 E0.03928
G1 X121.645 Y157.03 E0.03932
G1 X121.559 Y156.529 E0.03926
G1 X121.545 Y156.231 E0.02304
G1 X121.544 Y149.268 E0.53775
G1 X121.584 Y148.761 E0.03928
G1 X121.703 Y148.267 E0.03924
G1 X121.897 Y147.797 E0.03927
G1 X122.163 Y147.363 E0.03931
G1 X122.494 Y146.976 E0.03933
G1 X122.881 Y146.646 E0.03928
M204 S1600
G0 F10800 X123.2 Y147.308
M204 S800
G1 F1800 X123.572 Y147.058 E0.03461
G1 X123.983 Y146.879 E0.03462
G1 X124.646 Y146.752 E0.05213
G1 X125.433 Y146.71 E0.06087
G1 X125.823 Y146.704 E0.03012
G1 X171.291 Y146.705 E3.5115
G1 X171.738 Y146.745 E0.03466
G1 X172.17 Y146.863 E0.03459
G1 X172.575 Y147.057 E0.03468
G1 X172.939 Y147.319 E0.03464
G1 X173.251 Y147.641 E0.03463
G1 X173.501 Y148.014 E0.03468
G1 X173.681 Y148.425 E0.03465
G1 X173.785 Y148.861 E0.03462
G1 X173.811 Y149.225 E0.02818
G1 X173.811 Y156.275 E0.54447
G1 X173.771 Y156.722 E0.03466
G1 X173.653 Y157.154 E0.03459
G1 X173.459 Y157.559 E0.03468
G1 X173.197 Y157.923 E0.03464
G1 X172.875 Y158.235 E0.03463
G1 X172.502 Y158.485 E0.03468
G1 X172.091 Y158.665 E0.03465
G1 X171.655 Y158.769 E0.03462
G1 X171.291 Y158.795 E0.02818
G1 X125.759 Y158.795 E3.51644
G1 X125.107 Y158.777 E0.05037
G1 X124.18 Y158.677 E0.07201
G1 X123.756 Y158.531 E0.03463
G1 X123.365 Y158.313 E0.03457
G1 X123.018 Y158.028 E0.03468
G1 X122.728 Y157.686 E0.03463
G1 X122.502 Y157.298 E0.03468
G1 X122.349 Y156.877 E0.03459
G1 X122.265 Y156.231 E0.05031
G1 X122.264 Y149.268 E0.53775
G1 X122.304 Y148.822 E0.03458
G1 X122.422 Y148.389 E0.03466
G1 X122.616 Y147.984 E0.03468
G1 X122.878 Y147.62 E0.03464
G1 X123.2 Y147.308 E0.03463
M204 S1600
G0 F10800 X123.587 Y147.923
M204 S800
G1 F1800 X123.895 Y147.703 E0.02923
G1 X124.243 Y147.551 E0.02933
G1 X124.685 Y147.471 E0.03469
G1 X125.446 Y147.43 E0.05886
G1 X125.823 Y147.424 E0.02912
G1 X171.291 Y147.425 E3.5115
G1 X171.668 Y147.465 E0.02928
G1 X172.028 Y147.583 E0.02926
G1 X172.355 Y147.773 E0.02921
G1 X172.636 Y148.029 E0.02936
G1 X172.856 Y148.337 E0.02923
G1 X173.008 Y148.684 E0.02926
G1 X173.091 Y149.225 E0.04227
G1 X173.091 Y156.275 E0.54447
G1 X173.051 Y156.652 E0.02928
G1 X172.933 Y157.012 E0.02926
G1 X172.743 Y157.339 E0.02921
G1 X172.488 Y157.62 E0.02931
G1 X172.179 Y157.84 E0.02929
G1 X171.832 Y157.992 E0.02926
G1 X171.291 Y158.075 E0.04227
G1 X125.778 Y158.075 E3.51497
G1 X125.153 Y158.058 E0.04829
G1 X124.296 Y157.963 E0.06659
G1 X123.944 Y157.823 E0.02926
G1 X123.63 Y157.611 E0.02926
G1 X123.366 Y157.339 E0.02927
G1 X123.166 Y157.017 E0.02927
G1 X123.037 Y156.661 E0.02924
G1 X122.985 Y156.231 E0.03345
G1 X122.984 Y149.268 E0.53775
G1 X123.024 Y148.891 E0.02928
G1 X123.142 Y148.531 E0.02926
G1 X123.332 Y148.204 E0.02921
G1 X123.587 Y147.923 E0.02931
M204 S1600
G0 F10800 X124.045 Y148.481
M204 S800
G1 F1800 X124.284 Y148.311 E0.02265
G1 X124.725 Y148.19 E0.03532
G1 X125.458 Y148.15 E0.05669
G1 X125.823 Y148.144 E0.02819
G1 X171.291 Y148.145 E3.5115
G1 X171.582 Y148.185 E0.02269
G1 X171.851 Y148.301 E0.02262
G1 X172.079 Y148.486 E0.02268
G1 X172.248 Y148.725 E0.02261
G1 X172.348 Y149.001 E0.02267
G1 X172.371 Y149.225 E0.01739
G1 X172.371 Y156.275 E0.54447
G1 X172.331 Y156.566 E0.02269
G1 X172.215 Y156.835 E0.02262
G1 X172.03 Y157.063 E0.02268
G1 X171.791 Y157.232 E0.02261
G1 X171.515 Y157.332 E0.02267
G1 X171.291 Y157.355 E0.01739
G1 X125.796 Y157.356 E3.51358
G1 X125.199 Y157.34 E0.04612
G1 X124.716 Y157.309 E0.03738
G1 X124.428 Y157.25 E0.0227
G1 X124.167 Y157.117 E0.02262
G1 X123.952 Y156.918 E0.02263
G1 X123.798 Y156.669 E0.02261
G1 X123.705 Y156.231 E0.03458
G1 X123.704 Y149.268 E0.53775
G1 X123.744 Y148.978 E0.02261
G1 X123.86 Y148.708 E0.0227
G1 X124.045 Y148.481 E0.02262
M204 S1600
G0 F10800 X124.573 Y148.976
M204 S800
G1 F1800 X124.764 Y148.909 E0.01563
G1 X125.471 Y148.87 E0.05468
G1 X125.823 Y148.864 E0.02719
G1 X171.291 Y148.865 E3.5115
G1 X171.455 Y148.904 E0.01302
G1 X171.583 Y149.014 E0.01303
G1 X171.651 Y149.225 E0.01712
G1 X171.651 Y156.275 E0.54447
G1 X171.612 Y156.439 E0.01302
G1 X171.502 Y156.567 E0.01303
G1 X171.291 Y156.635 E0.01712
G1 X125.814 Y156.636 E3.51219
G1 X125.245 Y156.621 E0.04396
G1 X124.762 Y156.59 E0.03738
G1 X124.601 Y156.54 E0.01302
G1 X124.48 Y156.423 E0.013
G1 X124.425 Y156.231 E0.01542
G1 X124.424 Y149.268 E0.53775
G1 X124.463 Y149.104 E0.01302
G1 X124.573 Y148.976 E0.01303
M204 S1600
;MESH:smart_compact_temp_calibration.stl
G0 F10800 X125.878 Y150.318
G0 X125.846 Y149.584
M204 S800
;TYPE:WALL-OUTER
G1 F1800 X170.931 Y149.585 E3.48192
G1 X170.931 Y155.915 E0.48887
G1 X125.832 Y155.916 E3.483
G1 X125.277 Y155.902 E0.04288
G1 X125.145 Y155.894 E0.01021
G1 X125.144 Y149.625 E0.48416
G1 X125.144 Y149.608 E0.00131
G1 X125.829 Y149.584 E0.05294
G1 X125.846 Y149.584 E0.00131
M204 S1600
G0 F10800 X126.146 Y149.584
G0 X126.224 Y150.304
M204 S800
;TYPE:WALL-INNER
G1 F1800 X170.211 Y150.305 E3.39712
G1 X170.211 Y155.195 E0.37765
G1 X125.865 Y155.196 E3.42484
G1 X125.864 Y150.664 E0.35001
G1 X125.864 Y150.304 E0.0278
G1 X126.224 Y150.304 E0.01798
M204 S1600
G0 F10800 X126.223 Y150.404
G0 X126.36 Y154.871
M204 S800
;TYPE:SKIN
G1 F1800 X126.188 Y154.699 E0.01879
M204 S1600
G0 F10800 X126.188 Y153.681
M204 S800
G1 F1800 X127.378 Y154.871 E0.12997
M204 S1600
G0 F10800 X128.397 Y154.871
M204 S800
G1 F1800 X126.188 Y152.662 E0.24127
M204 S1600
G0 F10800 X126.188 Y151.643
M204 S800
G1 F1800 X129.415 Y154.871 E0.35251
M204 S1600
G0 F10800 X130.433 Y154.871
M204 S800
G1 F1800 X126.19 Y150.627 E0.46347
M204 S1600
G0 F10800 X127.208 Y150.627
M204 S800
G1 F1800 X131.451 Y154.871 E0.46347
M204 S1600
G0 F10800 X132.47 Y154.871
M204 S800
G1 F1800 X128.226 Y150.627 E0.46353
M204 S1600
G0 F10800 X129.244 Y150.627
M204 S800
G1 F1800 X133.488 Y154.871 E0.46353
M204 S1600
G0 F10800 X134.506 Y154.871
M204 S800
G1 F1800 X130.263 Y150.627 E0.46347
M204 S1600
G0 F10800 X131.281 Y150.627
M204 S800
G1 F1800 X135.524 Y154.871 E0.46347
M204 S1600
G0 F10800 X136.543 Y154.871
M204 S800
G1 F1800 X132.299 Y150.627 E0.46353
M204 S1600
G0 F10800 X133.317 Y150.627
M204 S800
G1 F1800 X137.561 Y154.871 E0.46353
M204 S1600
G0 F10800 X138.579 Y154.871
M204 S800
G1 F1800 X134.336 Y150.627 E0.46347
M204 S1600
G0 F10800 X135.354 Y150.627
M204 S800
G1 F1800 X139.597 Y154.871 E0.46347
M204 S1600
G0 F10800 X140.615 Y154.871
M204 S800
G1 F1800 X136.372 Y150.627 E0.46347
M204 S1600
G0 F10800 X137.39 Y150.627
M204 S800
G1 F1800 X141.634 Y154.871 E0.46353
M204 S1600
G0 F10800 X142.652 Y154.871
M204 S800
G1 F1800 X138.409 Y150.627 E0.46347
M204 S1600
G0 F10800 X139.427 Y150.627
M204 S800
G1 F1800 X143.67 Y154.871 E0.46347
M204 S1600
G0 F10800 X144.688 Y154.871
M204 S800
G1 F1800 X140.445 Y150.627 E0.46347
M204 S1600
G0 F10800 X141.464 Y150.628
M204 S800
G1 F1800 X145.707 Y154.871 E0.46342
M204 S1600
G0 F10800 X146.725 Y154.871
M204 S800
G1 F1800 X142.482 Y150.628 E0.46342
M204 S1600
G0 F10800 X143.5 Y150.628
M204 S800
G1 F1800 X147.743 Y154.871 E0.46342
M204 S1600
G0 F10800 X148.761 Y154.871
M204 S800
G1 F1800 X144.519 Y150.628 E0.46336
M204 S1600
G0 F10800 X145.537 Y150.628
M204 S800
G1 F1800 X149.78 Y154.871 E0.46342
M204 S1600
G0 F10800 X150.798 Y154.871
M204 S800
G1 F1800 X146.555 Y150.628 E0.46342
M204 S1600
G0 F10800 X147.573 Y150.628
M204 S800
G1 F1800 X151.816 Y154.871 E0.46342
M204 S1600
G0 F10800 X152.834 Y154.871
M204 S800
G1 F1800 X148.592 Y150.628 E0.46336
M204 S1600
G0 F10800 X149.61 Y150.628
M204 S800
G1 F1800 X153.853 Y154.871 E0.46342
M204 S1600
G0 F10800 X154.871 Y154.871
M204 S800
G1 F1800 X150.628 Y150.628 E0.46342
M204 S1600
G0 F10800 X151.646 Y150.628
M204 S800
G1 F1800 X155.889 Y154.871 E0.46342
M204 S1600
G0 F10800 X156.907 Y154.871
M204 S800
G1 F1800 X152.665 Y150.628 E0.46336
M204 S1600
G0 F10800 X153.683 Y150.628
M204 S800
G1 F1800 X157.925 Y154.871 E0.46336
M204 S1600
G0 F10800 X158.944 Y154.871
M204 S800
G1 F1800 X154.701 Y150.628 E0.46342
M204 S1600
G0 F10800 X155.72 Y150.629
M204 S800
G1 F1800 X159.962 Y154.871 E0.46331
M204 S1600
G0 F10800 X160.98 Y154.871
M204 S800
G1 F1800 X156.738 Y150.629 E0.46331
M204 S1600
G0 F10800 X157.756 Y150.629
M204 S800
G1 F1800 X161.998 Y154.871 E0.46331
M204 S1600
G0 F10800 X163.017 Y154.871
M204 S800
G1 F1800 X158.775 Y150.629 E0.46331
M204 S1600
G0 F10800 X159.793 Y150.629
M204 S800
G1 F1800 X164.035 Y154.871 E0.46331
M204 S1600
G0 F10800 X165.053 Y154.871
M204 S800
G1 F1800 X160.811 Y150.629 E0.46331
M204 S1600
G0 F10800 X161.829 Y150.629
M204 S800
G1 F1800 X166.071 Y154.871 E0.46331
M204 S1600
G0 F10800 X167.09 Y154.871
M204 S800
G1 F1800 X162.848 Y150.629 E0.46331
M204 S1600
G0 F10800 X163.866 Y150.629
M204 S800
G1 F1800 X168.108 Y154.871 E0.46331
M204 S1600
G0 F10800 X169.126 Y154.871
M204 S800
G1 F1800 X164.884 Y150.629 E0.46331
M204 S1600
G0 F10800 X165.902 Y150.629
M204 S800
G1 F1800 X169.886 Y154.613 E0.43513
M204 S1600
G0 F10800 X169.886 Y153.594
M204 S800
G1 F1800 X166.921 Y150.629 E0.32384
M204 S1600
G0 F10800 X167.939 Y150.629
M204 S800
G1 F1800 X169.886 Y152.576 E0.21265
M204 S1600
G0 F10800 X169.886 Y151.558
M204 S800
G1 F1800 X168.957 Y150.629 E0.10147
M204 S1600
G0 F10800 X168.957 Y151.024
G1 F3300 E-1.3
;MESH:NONMESH
G0 F600 X168.957 Y151.024 Z0.6
G0 F10800 X162.924 Y150.404
G0 X162.925 Y150.155
;TIME_ELAPSED:42.189084
;LAYER:1
M204 S1000
;TYPE:WALL-INNER
;MESH:smart_compact_temp_calibration.stl
G1 F3300 E1.3
G1 F1440.2 X170.731 Y150.155 E0.60286
G1 X170.731 Y155.345 E0.40082
G1 X125.785 Y155.345 E3.47118
G1 X125.471 Y155.336 E0.02426
G1 X125.47 Y150.346 E0.38538
G1 X125.47 Y150.169 E0.01367
G1 X125.836 Y150.154 E0.02829
G1 X126.013 Y150.154 E0.01367
G1 X142.585 Y150.154 E1.27986
G1 X142.585 Y149.584 E0.04402
;TYPE:WALL-INNER
;BRIDGE
M106 S38.3
G1 F720.1 X162.925 Y149.58 E1.64392
;TYPE:WALL-INNER
M107
G1 F1440.2 X162.925 Y150.155 E0.04441
M204 S1600
G1 F3300 E-1.3
G0 F10800 X162.855 Y150.225
G0 X170.661 Y150.225
G0 X171.451 Y149.435
M204 S600
;TYPE:WALL-OUTER
G1 F3300 E1.3
G1 F720.1 X171.451 Y156.065 E0.51204
G1 X125.764 Y156.065 E3.52841
G1 X125.219 Y156.049 E0.04211
G1 X124.751 Y156.019 E0.03622
G1 X124.75 Y149.485 E0.50462
G1 X124.969 Y149.469 E0.01696
G1 X125.832 Y149.434 E0.0667
G1 X141.145 Y149.434 E1.18262
G1 X141.865 Y149.434 E0.05561
G1 X141.865 Y148.86 E0.04433
;TYPE:WALL-OUTER
;BRIDGE
M106 S38.3
G1 X163.645 Y148.86 E1.76031
;TYPE:WALL-OUTER
M107
G1 X163.645 Y149.435 E0.04441
G1 X164.365 Y149.435 E0.05561
G1 X171.451 Y149.435 E0.54725
M204 S1600
G0 F10800 X171.451 Y149.735
G1 F3300 E-1.3
G0 F10800 X170.661 Y150.225
G0 X170.406 Y154.41
M204 S800
;TYPE:SKIN
G1 F3300 E1.3
G1 F1152.1 X169.795 Y155.021 E0.06673
M204 S1600
G0 F10800 X168.777 Y155.021
M204 S800
G1 F1152.1 X170.406 Y153.391 E0.17797
M204 S1600
G0 F10800 X170.406 Y152.373
M204 S800
G1 F1152.1 X167.758 Y155.021 E0.28921
M204 S1600
G0 F10800 X166.74 Y155.021
M204 S800
G1 F1152.1 X170.406 Y151.355 E0.4004
M204 S1600
G0 F10800 X170.264 Y150.478
M204 S800
G1 F1152.1 X165.722 Y155.021 E0.49613
M204 S1600
G0 F10800 X164.704 Y155.021
M204 S800
G1 F1152.1 X169.246 Y150.478 E0.49613
M204 S1600
G0 F10800 X168.228 Y150.478
M204 S800
G1 F1152.1 X163.686 Y155.021 E0.49613
M204 S1600
G0 F10800 X162.667 Y155.021
M204 S800
G1 F1152.1 X167.21 Y150.478 E0.49619
M204 S1600
G0 F10800 X166.192 Y150.478
M204 S800
G1 F1152.1 X161.649 Y155.021 E0.49619
M204 S1600
G0 F10800 X160.631 Y155.021
M204 S800
G1 F1152.1 X165.173 Y150.478 E0.49613
M204 S1600
G0 F10800 X164.155 Y150.478
M204 S800
G1 F1152.1 X159.613 Y155.021 E0.49613
M204 S1600
G0 F10800 X158.594 Y155.021
M204 S800
G1 F1152.1 X163.137 Y150.478 E0.49619
M204 S1600
G0 F10800 X162.599 Y149.997
M204 S800
G1 F1152.1 X157.576 Y155.021 E0.54867
M204 S1600
G0 F10800 X156.558 Y155.021
M204 S800
G1 F1152.1 X161.675 Y149.903 E0.55893
M204 S1600
G0 F10800 X160.657 Y149.903
M204 S800
G1 F1152.1 X155.54 Y155.021 E0.55893
M204 S1600
G0 F10800 X154.521 Y155.021
M204 S800
G1 F1152.1 X159.639 Y149.903 E0.55899
M204 S1600
G0 F10800 X158.621 Y149.903
M204 S800
G1 F1152.1 X153.503 Y155.021 E0.55899
M204 S1600
G0 F10800 X152.485 Y155.021
M204 S800
G1 F1152.1 X157.602 Y149.903 E0.55893
M204 S1600
G0 F10800 X156.584 Y149.903
M204 S800
G1 F1152.1 X151.467 Y155.021 E0.55893
M204 S1600
G0 F10800 X150.448 Y155.021
M204 S800
G1 F1152.1 X155.566 Y149.903 E0.55899
M204 S1600
G0 F10800 X154.548 Y149.903
M204 S800
G1 F1152.1 X149.43 Y155.021 E0.55899
M204 S1600
G0 F10800 X148.412 Y155.021
M204 S800
G1 F1152.1 X153.529 Y149.903 E0.55893
M204 S1600
G0 F10800 X152.511 Y149.903
M204 S800
G1 F1152.1 X147.394 Y155.02 E0.55888
M204 S1600
G0 F10800 X146.376 Y155.02
M204 S800
G1 F1152.1 X151.493 Y149.903 E0.55888
M204 S1600
G0 F10800 X150.475 Y149.903
M204 S800
G1 F1152.1 X145.358 Y155.02 E0.55888
M204 S1600
G0 F10800 X144.34 Y155.02
M204 S800
G1 F1152.1 X149.456 Y149.903 E0.55882
M204 S1600
G0 F10800 X148.438 Y149.903
M204 S800
G1 F1152.1 X143.322 Y155.02 E0.55882
M204 S1600
G0 F10800 X142.303 Y155.02
M204 S800
G1 F1152.1 X147.42 Y149.903 E0.55888
M204 S1600
G0 F10800 X146.402 Y149.903
M204 S800
G1 F1152.1 X141.285 Y155.02 E0.55888
M204 S1600
G0 F10800 X140.267 Y155.02
M204 S800
G1 F1152.1 X145.383 Y149.903 E0.55882
M204 S1600
G0 F10800 X144.365 Y149.903
M204 S800
G1 F1152.1 X139.249 Y155.02 E0.55882
M204 S1600
G0 F10800 X138.23 Y155.02
M204 S800
G1 F1152.1 X142.774 Y150.477 E0.49624
M204 S1600
G0 F10800 X142.909 Y150.342
M204 S800
G1 F1152.1 X143.347 Y149.903 E0.04789
M204 S1600
G0 F10800 X141.755 Y150.477
M204 S800
G1 F1152.1 X137.212 Y155.02 E0.49619
M204 S1600
G0 F10800 X136.194 Y155.02
M204 S800
G1 F1152.1 X140.737 Y150.477 E0.49619
M204 S1600
G0 F10800 X139.719 Y150.477
M204 S800
G1 F1152.1 X135.176 Y155.02 E0.49619
M204 S1600
G0 F10800 X134.157 Y155.02
M204 S800
G1 F1152.1 X138.701 Y150.477 E0.49624
M204 S1600
G0 F10800 X137.682 Y150.477
M204 S800
G1 F1152.1 X133.139 Y155.02 E0.49619
M204 S1600
G0 F10800 X132.121 Y155.02
M204 S800
G1 F1152.1 X136.664 Y150.477 E0.49619
M204 S1600
G0 F10800 X135.646 Y150.477
M204 S800
G1 F1152.1 X131.103 Y155.02 E0.49619
M204 S1600
G0 F10800 X130.085 Y155.02
M204 S800
G1 F1152.1 X134.628 Y150.477 E0.49619
M204 S1600
G0 F10800 X133.609 Y150.477
M204 S800
G1 F1152.1 X129.066 Y155.02 E0.49619
M204 S1600
G0 F10800 X128.048 Y155.02
M204 S800
