;FLAVOR:Marlin
;TIME:1458
;Filament used: 5.83255m
;Layer height: 0.3
;MINX:116.457
;MINY:116.467
;MINZ:0.3
;MAXX:188.543
;MAXY:188.533
;MAXZ:49.8
;LINEARADVANCEPROCESSED
;ZOFFSETPROCESSED
;Generated with Cura_SteamEngine 4.8.0
M140 S90
M105
M190 S90
M104 S245
M105
M109 S245
M82 ;absolute extrusion mode
; XY Comp -> Scale 101 25
PRINT_START
BED_MESH_PROFILE LOAD=HOT
SET_PRESSURE_ADVANCE ADVANCE=0.03
; SET_GCODE_OFFSET Z=0.04
M141 S50
M82 ;absolute extrusion mode
; EXTRUDER START
M83 ;relative extrusion mode
M83 ;relative extrusion mode
G1 F3300 E-1.3
;LAYER_COUNT:166
M900 K0.030000 T0 ;added by LinearAdvanceSettingPlugin
;LAYER:0
M107
G0 F10800 X118.878 Y118.738 Z0.34 ;adjusted by z offset
G92 Z0.3 ;consider this the original z before offset
;TYPE:SKIRT
G1 F3300 E1.3
G1 F1800 X119.356 Y118.308 E0.04731
G1 X120.205 Y117.692 E0.07718
G1 X120.758 Y117.373 E0.04697
G1 X121.709 Y116.95 E0.07658
G1 X122.314 Y116.753 E0.04681
G1 X123.34 Y116.534 E0.07719
G1 X123.979 Y116.467 E0.04727
G1 X125.021 Y116.467 E0.07667
G1 X125.66 Y116.534 E0.04727
G1 X126.686 Y116.753 E0.07719
G1 X127.291 Y116.95 E0.04681
G1 X128.242 Y117.373 E0.07658
G1 X128.795 Y117.692 E0.04697
G1 X129.644 Y118.308 E0.07718
G1 X130.122 Y118.738 E0.04731
G1 X130.754 Y119.44 E0.0695
G1 X174.246 Y119.44 E3.19995
G1 X174.878 Y118.738 E0.0695
G1 X175.356 Y118.308 E0.04731
G1 X176.205 Y117.692 E0.07718
G1 X176.758 Y117.373 E0.04697
G1 X177.709 Y116.95 E0.07658
G1 X178.314 Y116.753 E0.04681
G1 X179.34 Y116.534 E0.07719
G1 X179.979 Y116.467 E0.04727
G1 X181.021 Y116.467 E0.07667
G1 X181.66 Y116.534 E0.04727
G1 X182.686 Y116.753 E0.07719
G1 X183.291 Y116.95 E0.04681
G1 X184.242 Y117.373 E0.07658
G1 X184.795 Y117.692 E0.04697
G1 X185.644 Y118.308 E0.07718
G1 X186.122 Y118.738 E0.04731
G1 X186.821 Y119.515 E0.0769
G1 X187.196 Y120.031 E0.04693
G1 X187.717 Y120.933 E0.07664
G1 X187.976 Y121.516 E0.04694
G1 X188.3 Y122.51 E0.07692
G1 X188.434 Y123.139 E0.04732
G1 X188.543 Y124.179 E0.07694
G1 X188.543 Y124.816 E0.04687
G1 X188.434 Y125.859 E0.07716
G1 X188.3 Y126.489 E0.04739
G1 X187.976 Y127.483 E0.07692
G1 X187.717 Y128.064 E0.0468
G1 X187.196 Y128.967 E0.0767
G1 X186.821 Y129.485 E0.04705
G1 X186.122 Y130.262 E0.0769
G1 X185.644 Y130.692 E0.04731
G1 X185.56 Y130.753 E0.00764
G1 X185.56 Y174.247 E3.2001
G1 X185.644 Y174.308 E0.00764
G1 X186.122 Y174.738 E0.04731
G1 X186.821 Y175.515 E0.0769
G1 X187.196 Y176.031 E0.04693
G1 X187.717 Y176.933 E0.07664
G1 X187.976 Y177.516 E0.04694
G1 X188.3 Y178.51 E0.07692
G1 X188.434 Y179.139 E0.04732
G1 X188.543 Y180.179 E0.07694
G1 X188.543 Y180.816 E0.04687
G1 X188.434 Y181.859 E0.07716
G1 X188.3 Y182.489 E0.04739
G1 X187.976 Y183.483 E0.07692
G1 X187.717 Y184.064 E0.0468
G1 X187.196 Y184.967 E0.0767
G1 X186.821 Y185.485 E0.04705
G1 X186.122 Y186.262 E0.0769
G1 X185.644 Y186.692 E0.04731
G1 X184.796 Y187.307 E0.07707
G1 X184.244 Y187.625 E0.04687
G1 X183.292 Y188.049 E0.07668
G1 X182.686 Y188.247 E0.04691
G1 X181.66 Y188.466 E0.07719
G1 X181.021 Y188.533 E0.04727
G1 X179.979 Y188.533 E0.07667
G1 X179.34 Y188.466 E0.04727
G1 X178.314 Y188.247 E0.07719
G1 X177.708 Y188.049 E0.04691
G1 X176.756 Y187.625 E0.07668
G1 X176.204 Y187.307 E0.04687
G1 X175.356 Y186.692 E0.07707
G1 X174.878 Y186.262 E0.04731
G1 X174.246 Y185.56 E0.0695
G1 X130.754 Y185.56 E3.19995
G1 X130.122 Y186.262 E0.0695
G1 X129.644 Y186.692 E0.04731
G1 X128.796 Y187.307 E0.07707
G1 X128.244 Y187.625 E0.04687
G1 X127.292 Y188.049 E0.07668
G1 X126.686 Y188.247 E0.04691
G1 X125.66 Y188.466 E0.07719
G1 X125.021 Y188.533 E0.04727
G1 X123.979 Y188.533 E0.07667
G1 X123.34 Y188.466 E0.04727
G1 X122.314 Y188.247 E0.07719
G1 X121.708 Y188.049 E0.04691
G1 X120.756 Y187.625 E0.07668
G1 X120.204 Y187.307 E0.04687
G1 X119.356 Y186.692 E0.07707
G1 X118.878 Y186.262 E0.04731
G1 X118.179 Y185.485 E0.0769
G1 X117.804 Y184.967 E0.04705
G1 X117.283 Y184.064 E0.0767
G1 X117.024 Y183.483 E0.0468
G1 X116.7 Y182.489 E0.07692
G1 X116.566 Y181.86 E0.04732
G1 X116.457 Y180.821 E0.07686
G1 X116.457 Y180.184 E0.04687
G1 X116.566 Y179.14 E0.07723
G1 X116.7 Y178.51 E0.04739
G1 X117.024 Y177.516 E0.07692
G1 X117.283 Y176.933 E0.04694
G1 X117.804 Y176.031 E0.07664
G1 X118.179 Y175.515 E0.04693
G1 X118.878 Y174.738 E0.0769
G1 X119.356 Y174.308 E0.04731
G1 X119.44 Y174.247 E0.00764
G1 X119.44 Y130.753 E3.2001
G1 X119.356 Y130.692 E0.00764
G1 X118.878 Y130.262 E0.04731
G1 X118.179 Y129.485 E0.0769
G1 X117.804 Y128.967 E0.04705
G1 X117.283 Y128.064 E0.0767
G1 X117.024 Y127.483 E0.0468
G1 X116.7 Y126.489 E0.07692
G1 X116.566 Y125.86 E0.04732
G1 X116.457 Y124.821 E0.07686
G1 X116.457 Y124.184 E0.04687
G1 X116.566 Y123.14 E0.07723
G1 X116.7 Y122.51 E0.04739
G1 X117.024 Y121.516 E0.07692
G1 X117.283 Y120.933 E0.04694
G1 X117.804 Y120.031 E0.07664
G1 X118.179 Y119.515 E0.04693
G1 X118.878 Y118.738 E0.0769
G0 F10800 X119.384 Y119.193
G1 F1800 X119.755 Y118.859 E0.03673
G1 X120.604 Y118.243 E0.07718
G1 X121.035 Y117.994 E0.03662
G1 X121.986 Y117.571 E0.07658
G1 X122.456 Y117.418 E0.03637
G1 X123.482 Y117.199 E0.07719
G1 X123.979 Y117.147 E0.03677
G1 X125.021 Y117.147 E0.07667
G1 X125.518 Y117.199 E0.03677
G1 X126.544 Y117.418 E0.07719
G1 X127.014 Y117.571 E0.03637
G1 X127.965 Y117.994 E0.07658
G1 X128.396 Y118.243 E0.03662
G1 X129.245 Y118.859 E0.07718
G1 X129.616 Y119.193 E0.03673
G1 X130.315 Y119.97 E0.0769
G1 X130.424 Y120.12 E0.01364
G1 X174.576 Y120.12 E3.24851
G1 X174.685 Y119.97 E0.01364
G1 X175.384 Y119.193 E0.0769
G1 X175.755 Y118.859 E0.03673
G1 X176.604 Y118.243 E0.07718
G1 X177.035 Y117.994 E0.03662
G1 X177.986 Y117.571 E0.07658
G1 X178.456 Y117.418 E0.03637
G1 X179.482 Y117.199 E0.07719
G1 X179.979 Y117.147 E0.03677
G1 X181.021 Y117.147 E0.07667
G1 X181.518 Y117.199 E0.03677
G1 X182.544 Y117.418 E0.07719
G1 X183.014 Y117.571 E0.03637
G1 X183.965 Y117.994 E0.07658
G1 X184.396 Y118.243 E0.03662
G1 X185.245 Y118.859 E0.07718
G1 X185.616 Y119.193 E0.03673
G1 X186.315 Y119.97 E0.0769
G1 X186.607 Y120.372 E0.03656
G1 X187.128 Y121.274 E0.07664
G1 X187.33 Y121.726 E0.03643
G1 X187.654 Y122.72 E0.07692
G1 X187.758 Y123.21 E0.03686
G1 X187.867 Y124.25 E0.07694
G1 X187.867 Y124.745 E0.03642
G1 X187.758 Y125.788 E0.07716
G1 X187.654 Y126.279 E0.03693
G1 X187.33 Y127.273 E0.07692
G1 X187.128 Y127.724 E0.03636
G1 X186.607 Y128.627 E0.0767
G1 X186.315 Y129.03 E0.03662
G1 X185.616 Y129.807 E0.0769
G1 X185.244 Y130.142 E0.03683
G1 X184.88 Y130.406 E0.03308
G1 X184.88 Y174.594 E3.25116
G1 X185.616 Y175.193 E0.06982
G1 X186.315 Y175.97 E0.0769
G1 X186.607 Y176.372 E0.03656
G1 X187.128 Y177.274 E0.07664
G1 X187.33 Y177.726 E0.03643
G1 X187.654 Y178.72 E0.07692
G1 X187.758 Y179.21 E0.03686
G1 X187.867 Y180.25 E0.07694
G1 X187.867 Y180.745 E0.03642
G1 X187.758 Y181.788 E0.07716
G1 X187.654 Y182.279 E0.03693
G1 X187.33 Y183.273 E0.07692
G1 X187.128 Y183.724 E0.03636
G1 X186.607 Y184.627 E0.0767
G1 X186.315 Y185.03 E0.03662
G1 X185.616 Y185.807 E0.0769
G1 X185.244 Y186.142 E0.03683
G1 X184.396 Y186.757 E0.07707
G1 X183.967 Y187.004 E0.03642
G1 X183.015 Y187.428 E0.07668
G1 X182.544 Y187.582 E0.03646
G1 X181.518 Y187.801 E0.07719
G1 X181.021 Y187.853 E0.03677
G1 X179.979 Y187.853 E0.07667
G1 X179.482 Y187.801 E0.03677
G1 X178.456 Y187.582 E0.07719
G1 X177.985 Y187.428 E0.03646
G1 X177.033 Y187.004 E0.07668
G1 X176.604 Y186.757 E0.03642
G1 X175.756 Y186.142 E0.07707
G1 X175.384 Y185.807 E0.03683
G1 X174.685 Y185.03 E0.0769
G1 X174.576 Y184.88 E0.01364
G1 X130.424 Y184.88 E3.24851
G1 X130.315 Y185.03 E0.01364
G1 X129.616 Y185.807 E0.0769
G1 X129.244 Y186.142 E0.03683
G1 X128.396 Y186.757 E0.07707
G1 X127.967 Y187.004 E0.03642
G1 X127.015 Y187.428 E0.07668
G1 X126.544 Y187.582 E0.03646
G1 X125.518 Y187.801 E0.07719
G1 X125.021 Y187.853 E0.03677
G1 X123.979 Y187.853 E0.07667
G1 X123.482 Y187.801 E0.03677
G1 X122.456 Y187.582 E0.07719
G1 X121.985 Y187.428 E0.03646
G1 X121.033 Y187.004 E0.07668
G1 X120.604 Y186.757 E0.03642
G1 X119.756 Y186.142 E0.07707
G1 X119.384 Y185.807 E0.03683
G1 X118.685 Y185.03 E0.0769
G1 X118.393 Y184.627 E0.03662
G1 X117.872 Y183.724 E0.0767
G1 X117.67 Y183.273 E0.03636
G1 X117.346 Y182.279 E0.07692
G1 X117.242 Y181.789 E0.03686
G1 X117.133 Y180.75 E0.07686
G1 X117.133 Y180.255 E0.03642
G1 X117.242 Y179.211 E0.07723
G1 X117.346 Y178.72 E0.03693
G1 X117.67 Y177.726 E0.07692
G1 X117.872 Y177.274 E0.03643
G1 X118.393 Y176.372 E0.07664
G1 X118.685 Y175.97 E0.03656
G1 X119.384 Y175.193 E0.0769
G1 X120.12 Y174.594 E0.06982
G1 X120.12 Y130.406 E3.25116
G1 X119.756 Y130.142 E0.03308
G1 X119.384 Y129.807 E0.03683
G1 X118.685 Y129.03 E0.0769
G1 X118.393 Y128.627 E0.03662
G1 X117.872 Y127.724 E0.0767
G1 X117.67 Y127.273 E0.03636
G1 X117.346 Y126.279 E0.07692
G1 X117.242 Y125.789 E0.03686
G1 X117.133 Y124.75 E0.07686
G1 X117.133 Y124.255 E0.03642
G1 X117.242 Y123.211 E0.07723
G1 X117.346 Y122.72 E0.03693
G1 X117.67 Y121.726 E0.07692
G1 X117.872 Y121.274 E0.03643
G1 X118.393 Y120.372 E0.07664
G1 X118.685 Y119.97 E0.03656
G1 X119.384 Y119.193 E0.0769
G0 F10800 X119.889 Y119.648
G1 F1800 X120.155 Y119.409 E0.02631
G1 X121.004 Y118.793 E0.07718
G1 X121.311 Y118.616 E0.02607
G1 X122.262 Y118.193 E0.07658
G1 X122.598 Y118.083 E0.02601
G1 X123.624 Y117.864 E0.07719
G1 X123.979 Y117.827 E0.02626
G1 X125.021 Y117.827 E0.07667
G1 X125.376 Y117.864 E0.02626
G1 X126.402 Y118.083 E0.07719
G1 X126.738 Y118.193 E0.02601
G1 X127.689 Y118.616 E0.07658
G1 X127.996 Y118.793 E0.02607
G1 X128.845 Y119.409 E0.07718
G1 X129.111 Y119.648 E0.02631
G1 X129.81 Y120.425 E0.0769
G1 X130.069 Y120.8 E0.03353
G1 X174.931 Y120.8 E3.30075
G1 X175.19 Y120.425 E0.03353
G1 X175.889 Y119.648 E0.0769
G1 X176.155 Y119.409 E0.02631
G1 X177.004 Y118.793 E0.07718
G1 X177.311 Y118.616 E0.02607
G1 X178.262 Y118.193 E0.07658
G1 X178.598 Y118.083 E0.02601
G1 X179.624 Y117.864 E0.07719
G1 X179.979 Y117.827 E0.02626
G1 X181.021 Y117.827 E0.07667
G1 X181.376 Y117.864 E0.02626
G1 X182.402 Y118.083 E0.07719
G1 X182.738 Y118.193 E0.02601
G1 X183.689 Y118.616 E0.07658
G1 X183.996 Y118.793 E0.02607
G1 X184.845 Y119.409 E0.07718
G1 X185.111 Y119.648 E0.02631
G1 X185.81 Y120.425 E0.0769
G1 X186.018 Y120.712 E0.02608
G1 X186.539 Y121.614 E0.07664
G1 X186.683 Y121.937 E0.02602
G1 X187.007 Y122.931 E0.07692
G1 X187.082 Y123.281 E0.02634
G1 X187.191 Y124.321 E0.07694
G1 X187.191 Y124.675 E0.02605
G1 X187.082 Y125.718 E0.07716
G1 X187.007 Y126.068 E0.02634
G1 X186.683 Y127.062 E0.07692
G1 X186.539 Y127.385 E0.02602
G1 X186.018 Y128.288 E0.0767
G1 X185.81 Y128.575 E0.02608
G1 X185.111 Y129.352 E0.0769
G1 X184.845 Y129.591 E0.02631
G1 X184.2 Y130.059 E0.05863
G1 X184.2 Y174.941 E3.30222
G1 X184.845 Y175.409 E0.05863
G1 X185.111 Y175.648 E0.02631
G1 X185.81 Y176.425 E0.0769
G1 X186.018 Y176.712 E0.02608
G1 X186.539 Y177.614 E0.07664
G1 X186.683 Y177.937 E0.02602
G1 X187.007 Y178.931 E0.07692
G1 X187.082 Y179.281 E0.02634
G1 X187.191 Y180.321 E0.07694
G1 X187.191 Y180.675 E0.02605
G1 X187.082 Y181.718 E0.07716
G1 X187.007 Y182.068 E0.02634
G1 X186.683 Y183.062 E0.07692
G1 X186.539 Y183.385 E0.02602
G1 X186.018 Y184.288 E0.0767
G1 X185.81 Y184.575 E0.02608
G1 X185.111 Y185.352 E0.0769
G1 X184.845 Y185.591 E0.02631
G1 X183.997 Y186.206 E0.07707
G1 X183.691 Y186.383 E0.02601
G1 X182.739 Y186.807 E0.07668
G1 X182.402 Y186.917 E0.02608
G1 X181.376 Y187.136 E0.07719
G1 X181.021 Y187.173 E0.02626
G1 X179.979 Y187.173 E0.07667
G1 X179.624 Y187.136 E0.02626
G1 X178.598 Y186.917 E0.07719
G1 X178.261 Y186.807 E0.02608
G1 X177.309 Y186.383 E0.07668
G1 X177.003 Y186.206 E0.02601
G1 X176.155 Y185.591 E0.07707
G1 X175.889 Y185.352 E0.02631
G1 X175.19 Y184.575 E0.0769
G1 X174.931 Y184.2 E0.03353
G1 X130.069 Y184.2 E3.30075
G1 X129.81 Y184.575 E0.03353
G1 X129.111 Y185.352 E0.0769
G1 X128.845 Y185.591 E0.02631
G1 X127.997 Y186.206 E0.07707
G1 X127.691 Y186.383 E0.02601
G1 X126.739 Y186.807 E0.07668
G1 X126.402 Y186.917 E0.02608
G1 X125.376 Y187.136 E0.07719
G1 X125.021 Y187.173 E0.02626
G1 X123.979 Y187.173 E0.07667
G1 X123.624 Y187.136 E0.02626
G1 X122.598 Y186.917 E0.07719
G1 X122.261 Y186.807 E0.02608
G1 X121.309 Y186.383 E0.07668
G1 X121.003 Y186.206 E0.02601
G1 X120.155 Y185.591 E0.07707
G1 X119.889 Y185.352 E0.02631
G1 X119.19 Y184.575 E0.0769
G1 X118.982 Y184.288 E0.02608
G1 X118.461 Y183.385 E0.0767
G1 X118.317 Y183.062 E0.02602
G1 X117.993 Y182.068 E0.07692
G1 X117.918 Y181.718 E0.02634
G1 X117.809 Y180.679 E0.07686
G1 X117.809 Y180.325 E0.02605
G1 X117.918 Y179.281 E0.07723
G1 X117.993 Y178.931 E0.02634
G1 X118.317 Y177.937 E0.07692
G1 X118.461 Y177.614 E0.02602
G1 X118.982 Y176.712 E0.07664
G1 X119.19 Y176.425 E0.02608
G1 X119.889 Y175.648 E0.0769
G1 X120.155 Y175.409 E0.02631
G1 X120.8 Y174.941 E0.05863
G1 X120.8 Y130.059 E3.30222
G1 X120.155 Y129.591 E0.05863
G1 X119.889 Y129.352 E0.02631
G1 X119.19 Y128.575 E0.0769
G1 X118.982 Y128.288 E0.02608
G1 X118.461 Y127.385 E0.0767
G1 X118.317 Y127.062 E0.02602
G1 X117.993 Y126.068 E0.07692
G1 X117.918 Y125.718 E0.02634
G1 X117.809 Y124.679 E0.07686
G1 X117.809 Y124.325 E0.02605
G1 X117.918 Y123.281 E0.07723
G1 X117.993 Y122.931 E0.02634
G1 X118.317 Y121.937 E0.07692
G1 X118.461 Y121.614 E0.02602
G1 X118.982 Y120.712 E0.07664
G1 X119.19 Y120.425 E0.02608
G1 X119.889 Y119.648 E0.0769
G0 F10800 X120.395 Y120.103
G1 F1800 X120.554 Y119.959 E0.01578
G1 X121.403 Y119.343 E0.07718
G1 X121.587 Y119.237 E0.01562
G1 X122.538 Y118.814 E0.07658
G1 X122.74 Y118.748 E0.01564
G1 X123.766 Y118.529 E0.07719
G1 X123.979 Y118.507 E0.01575
G1 X125.021 Y118.507 E0.07667
G1 X125.234 Y118.529 E0.01575
G1 X126.26 Y118.748 E0.07719
G1 X126.462 Y118.814 E0.01564
G1 X127.413 Y119.237 E0.07658
G1 X127.597 Y119.343 E0.01562
G1 X128.446 Y119.959 E0.07718
G1 X128.605 Y120.103 E0.01578
G1 X129.304 Y120.88 E0.0769
G1 X129.676 Y121.48 E0.05194
G1 X175.324 Y121.48 E3.35858
G1 X175.696 Y120.88 E0.05194
G1 X176.395 Y120.103 E0.0769
G1 X176.554 Y119.959 E0.01578
G1 X177.403 Y119.343 E0.07718
G1 X177.587 Y119.237 E0.01562
G1 X178.538 Y118.814 E0.07658
G1 X178.74 Y118.748 E0.01564
G1 X179.766 Y118.529 E0.07719
G1 X179.979 Y118.507 E0.01575
G1 X181.021 Y118.507 E0.07667
G1 X181.234 Y118.529 E0.01575
G1 X182.26 Y118.748 E0.07719
G1 X182.462 Y118.814 E0.01564
G1 X183.413 Y119.237 E0.07658
G1 X183.597 Y119.343 E0.01562
G1 X184.446 Y119.959 E0.07718
G1 X184.605 Y120.103 E0.01578
G1 X185.304 Y120.88 E0.0769
G1 X185.429 Y121.052 E0.01564
G1 X185.95 Y121.954 E0.07664
G1 X186.037 Y122.148 E0.01564
G1 X186.361 Y123.142 E0.07692
G1 X186.405 Y123.352 E0.01579
G1 X186.514 Y124.392 E0.07694
G1 X186.514 Y124.604 E0.0156
G1 X186.405 Y125.647 E0.07716
G1 X186.361 Y125.857 E0.01579
G1 X186.037 Y126.851 E0.07692
G1 X185.95 Y127.045 E0.01564
G1 X185.429 Y127.948 E0.0767
G1 X185.304 Y128.12 E0.01564
G1 X184.605 Y128.897 E0.0769
G1 X184.446 Y129.041 E0.01578
G1 X183.598 Y129.656 E0.07707
G1 X183.52 Y129.701 E0.00663
G1 X183.52 Y175.299 E3.3549
G1 X183.597 Y175.343 E0.00653
G1 X184.446 Y175.959 E0.07718
G1 X184.605 Y176.103 E0.01578
G1 X185.304 Y176.88 E0.0769
G1 X185.429 Y177.052 E0.01564
G1 X185.95 Y177.954 E0.07664
G1 X186.037 Y178.148 E0.01564
G1 X186.361 Y179.142 E0.07692
G1 X186.405 Y179.352 E0.01579
G1 X186.514 Y180.392 E0.07694
G1 X186.514 Y180.604 E0.0156
G1 X186.405 Y181.647 E0.07716
G1 X186.361 Y181.857 E0.01579
G1 X186.037 Y182.851 E0.07692
G1 X185.95 Y183.045 E0.01564
G1 X185.429 Y183.948 E0.0767
G1 X185.304 Y184.12 E0.01564
G1 X184.605 Y184.897 E0.0769
G1 X184.446 Y185.041 E0.01578
G1 X183.598 Y185.656 E0.07707
G1 X183.414 Y185.762 E0.01562
G1 X182.462 Y186.186 E0.07668
G1 X182.26 Y186.252 E0.01564
G1 X181.234 Y186.471 E0.07719
G1 X181.021 Y186.493 E0.01575
G1 X179.979 Y186.493 E0.07667
G1 X179.766 Y186.471 E0.01575
G1 X178.74 Y186.252 E0.07719
G1 X178.538 Y186.186 E0.01564
G1 X177.586 Y185.762 E0.07668
G1 X177.402 Y185.656 E0.01562
G1 X176.554 Y185.041 E0.07707
G1 X176.395 Y184.897 E0.01578
G1 X175.696 Y184.12 E0.0769
G1 X175.324 Y183.52 E0.05194
G1 X129.676 Y183.52 E3.35858
G1 X129.304 Y184.12 E0.05194
G1 X128.605 Y184.897 E0.0769
G1 X128.446 Y185.041 E0.01578
G1 X127.598 Y185.656 E0.07707
G1 X127.414 Y185.762 E0.01562
G1 X126.462 Y186.186 E0.07668
